; generated by PrusaSlicer 2.7.4+win64 on 2024-06-14 at 04:56:17 UTC

; 

; external perimeters extrusion width = 0.45mm
; perimeters extrusion width = 0.40mm
; infill extrusion width = 0.45mm
; solid infill extrusion width = 0.50mm
; top infill extrusion width = 0.45mm
; first layer extrusion width = 0.56mm

M201 X2000 Y2000 Z800 E2000 ; sets maximum accelerations, mm/sec^2
M203 X300 Y250 Z8 E100 ; sets maximum feedrates, mm / sec
M204 S2000 T2000 ; sets acceleration (S) and retract acceleration (R), mm/sec^2
M205 X15.00 Y10.00 Z2.00 E10.00 ; sets the jerk limits, mm/sec
M205 S0 T0 ; sets the minimum extruding and travel feed rate, mm/sec
;TYPE:Custom
G90 ; use absolute coordinates
M83 ; extruder relative mode
M104 S225 ; set extruder temp
M140 S60 ; set bed temp
M190 S60 ; wait for bed temp
M109 S225 ; wait for extruder temp
G28                                        ; move X/Y/Z to min endstops
G1 Z0.28                                   ; lift nozzle a bit 
G92 E0 
G1 Y3 F1800                                    ; zero the extruded length 
G1 X60  E25 F500                       ; Extrude 25mm of filament in a 5cm line. 
G92 E0                                     ; zero the extruded length again 
G1 E-2 F500                                ; Retract a little 
G1 X70 F4000                              ; Quickly wipe away from the filament line
M117
G21 ; set units to millimeters
G90 ; use absolute coordinates
M82 ; use absolute distances for extrusion
G92 E0
M107
;LAYER_CHANGE
;Z:0.28
;HEIGHT:0.28
G1 E-2 F6000
G92 E0
G1 Z.28 F12000
G1 X93.738 Y99.157
G1 E2 F6000
G92 E0
M204 S2000
;TYPE:Skirt/Brim
;WIDTH:0.56
G1 F3000
G1 X94.039 Y98.872 E.02412
G1 X94.715 Y98.496 E.06914
G1 X95.397 Y98.288 E.11063
G1 X96.686 Y98.213 E.18577
G1 X97.638 Y98.341 E.24167
G1 X98.568 Y98.578 E.29752
G1 X99.478 Y98.906 E.35381
G1 X101.015 Y99.71 E.45475
G1 X102.307 Y100.756 E.55149
G1 X103.206 Y101.856 E.63416
G1 X103.925 Y103.21 E.72338
G1 X104.596 Y105.018 E.83561
G1 X104.923 Y105.58 E.87345
G1 X105.588 Y106.173 E.9253
G1 X106.466 Y106.523 E.98031
G1 X108.224 Y106.874 E1.08464
G1 X111.101 Y107.13 E1.25273
G1 X114.841 Y107.245 E1.47048
G1 X119.362 Y107.236 E1.73358
G1 X121.487 Y107.179 E1.85729
G1 X124.771 Y106.961 E2.04882
G1 X126.882 Y106.631 E2.17316
G1 X128.028 Y106.262 E2.24322
G1 X128.502 Y105.975 E2.27547
G1 X129.064 Y105.306 E2.32632
G1 X129.861 Y103.262 E2.45399
G1 X130.617 Y101.822 E2.54864
G1 X131.394 Y100.851 E2.62101
G1 X132.452 Y99.925 E2.70283
G1 X133.789 Y99.125 E2.7935
G1 X135.274 Y98.541 E2.88636
G1 X136.824 Y98.212 E2.97857
G1 X137.699 Y98.174 E3.02954
G1 X138.363 Y98.249 E3.06843
G1 X139.073 Y98.456 E3.11147
G1 X139.746 Y98.823 E3.15608
G1 X140.28 Y99.295 E3.19756
G1 X140.688 Y99.881 E3.23911
G1 X140.984 Y100.619 E3.28538
G1 X141.08 Y101.385 E3.33031
G1 X140.981 Y102.221 E3.3793
G1 X140.746 Y102.907 E3.4215
G1 X140.4 Y103.561 E3.46456
G1 X138.621 Y105.929 E3.63692
G1 X137.925 Y107.081 E3.71525
G1 X137.879 Y107.465 E3.73776
G1 X138.113 Y109.054 E3.83123
G1 X138.182 Y110.115 E3.89311
G1 X138.094 Y111.314 E3.96307
G1 X137.775 Y112.577 E4.03888
G1 X137.52 Y113.213 E4.07876
G1 X136.896 Y114.347 E4.15408
G1 X136.442 Y115.002 E4.20046
G1 X137.436 Y116.589 E4.30944
G1 X137.887 Y117.743 E4.38154
G1 X138.052 Y118.408 E4.42141
G1 X138.152 Y119.09 E4.46152
G1 X138.18 Y120.197 E4.52596
G1 X137.883 Y122.578 E4.6656
G1 X137.931 Y122.901 E4.6846
G1 X138.279 Y123.551 E4.72751
G1 X140.317 Y126.271 E4.9253
G1 X140.686 Y126.92 E4.96875
G1 X140.982 Y127.713 E5.01801
G1 X141.098 Y128.539 E5.06655
G1 X140.898 Y129.687 E5.13436
G1 X140.421 Y130.542 E5.19134
G1 X139.796 Y131.136 E5.24152
G1 X139.12 Y131.515 E5.28662
G1 X138.396 Y131.733 E5.33062
G1 X137.178 Y131.803 E5.40162
G1 X136.223 Y131.679 E5.45766
G1 X135.286 Y131.444 E5.51388
G1 X134.34 Y131.104 E5.57238
G1 X132.719 Y130.241 E5.67925
G1 X131.523 Y129.258 E5.76934
G1 X130.637 Y128.179 E5.85059
G1 X129.904 Y126.804 E5.94127
G1 X129.075 Y124.688 E6.07352
G1 X128.512 Y124.02 E6.12436
G1 X127.959 Y123.699 E6.16157
G1 X126.756 Y123.335 E6.23471
G1 X124.553 Y123.014 E6.36427
G1 X119.752 Y122.775 E6.64401
G1 X114.849 Y122.764 E6.92934
G1 X111.11 Y122.884 E7.14704
G1 X108.233 Y123.143 E7.31514
G1 X106.475 Y123.495 E7.41948
G1 X105.598 Y123.847 E7.47447
G1 X104.933 Y124.44 E7.52632
G1 X104.607 Y125.002 E7.56413
G1 X103.946 Y126.79 E7.67507
G1 X103.576 Y127.573 E7.72547
G1 X102.681 Y128.878 E7.81756
G1 X101.595 Y129.911 E7.90478
G1 X100.846 Y130.432 E7.95788
G1 X99.998 Y130.896 E8.01413
G1 X99.043 Y131.296 E8.07438
G1 X98.036 Y131.602 E8.13563
G1 X97.21 Y131.763 E8.1846
G1 X96.103 Y131.825 E8.24912
G1 X95.548 Y131.767 E8.28159
G1 X94.738 Y131.536 E8.33061
G1 X93.949 Y131.079 E8.38367
G1 X93.319 Y130.422 E8.43664
G1 X93.044 Y129.939 E8.46898
G1 X92.837 Y129.347 E8.50548
G1 X92.751 Y128.731 E8.54168
G1 X92.826 Y127.865 E8.59227
G1 X93.058 Y127.146 E8.63624
G1 X93.392 Y126.499 E8.67861
G1 X95.558 Y123.569 E8.89065
G1 X95.926 Y122.851 E8.9376
G1 X95.954 Y122.583 E8.95328
G1 X95.655 Y120.176 E9.09443
G1 X95.656 Y119.489 E9.13441
G1 X95.821 Y118.243 E9.20755
G1 X96.192 Y117.064 E9.27948
G1 X96.471 Y116.458 E9.3183
G1 X97.395 Y115.018 E9.41787
G1 X96.393 Y113.418 E9.52773
G1 X95.942 Y112.264 E9.59983
G1 X95.778 Y111.6 E9.63963
G1 X95.678 Y110.918 E9.67974
G1 X95.651 Y109.812 E9.74412
G1 X95.947 Y107.434 E9.88358
G1 X95.898 Y107.112 E9.90253
G1 X95.549 Y106.46 E9.94557
G1 X93.52 Y103.759 E10.14216
G1 X93.139 Y103.089 E10.18701
G1 X92.843 Y102.294 E10.23638
G1 X92.729 Y101.466 E10.28502
G1 X92.934 Y100.316 E10.353
G1 X93.414 Y99.463 E10.40996
G1 X93.694 Y99.198 E10.4324
G1 X93.694 Y99.198 F12000
G1 X94.033 Y99.561
G1 F3000
G1 X94.355 Y99.26 E10.45805
G1 X94.928 Y98.949 E10.49599
G1 X95.518 Y98.774 E10.5318
G1 X96.636 Y98.711 E10.59697
G1 X97.529 Y98.83 E10.6494
G1 X99.278 Y99.364 E10.75582
G1 X100.751 Y100.135 E10.85257
G1 X101.96 Y101.116 E10.94318
G1 X102.796 Y102.143 E11.02024
G1 X103.468 Y103.414 E11.10391
G1 X104.141 Y105.228 E11.21651
G1 X104.524 Y105.882 E11.26062
G1 X104.8 Y106.203 E11.28526
G1 X105.342 Y106.609 E11.32467
G1 X106.325 Y107.004 E11.38632
G1 X108.155 Y107.369 E11.49491
G1 X111.073 Y107.629 E11.6654
G1 X114.835 Y107.745 E11.88443
G1 X119.371 Y107.736 E12.1484
G1 X121.506 Y107.679 E12.27269
G1 X124.824 Y107.459 E12.4662
G1 X126.995 Y107.119 E12.59408
G1 X128.235 Y106.718 E12.66992
G1 X128.816 Y106.366 E12.70945
G1 X129.3 Y105.858 E12.75028
G1 X129.677 Y105.209 E12.79396
G1 X130.318 Y103.464 E12.90214
G1 X130.739 Y102.579 E12.95917
G1 X131.354 Y101.658 E13.02362
G1 X132.149 Y100.812 E13.09118
G1 X133.366 Y99.92 E13.17899
G1 X134.695 Y99.272 E13.26503
G1 X136.132 Y98.833 E13.35247
G1 X137.666 Y98.673 E13.44223
G1 X138.249 Y98.736 E13.47636
G1 X138.863 Y98.91 E13.5135
G1 X139.438 Y99.218 E13.55146
G1 X139.926 Y99.65 E13.58939
G1 X140.234 Y100.093 E13.62079
G1 X140.508 Y100.773 E13.66345
G1 X140.581 Y101.411 E13.70082
G1 X140.5 Y102.084 E13.74027
G1 X140.28 Y102.726 E13.77976
G1 X139.966 Y103.313 E13.8185
G1 X138.218 Y105.634 E13.98759
G1 X137.764 Y106.295 E14.03426
G1 X137.445 Y106.929 E14.07556
G1 X137.379 Y107.505 E14.1093
G1 X137.617 Y109.117 E14.20413
G1 X137.682 Y110.134 E14.26344
G1 X137.602 Y111.225 E14.3271
G1 X137.48 Y111.825 E14.36273
G1 X137.3 Y112.422 E14.39902
G1 X136.789 Y113.554 E14.4713
G1 X135.807 Y114.985 E14.5723
G1 X136.354 Y115.724 E14.62581
G1 X136.982 Y116.8 E14.69831
G1 X137.411 Y117.895 E14.76675
G1 X137.559 Y118.493 E14.8026
G1 X137.654 Y119.132 E14.8402
G1 X137.68 Y120.182 E14.90132
G1 X137.384 Y122.541 E15.03968
G1 X137.455 Y123.058 E15.07005
G1 X137.857 Y123.821 E15.12024
G1 X139.889 Y126.53 E15.31731
G1 X140.226 Y127.118 E15.35675
G1 X140.492 Y127.814 E15.40011
G1 X140.597 Y128.531 E15.44228
G1 X140.432 Y129.503 E15.49965
G1 X140.024 Y130.237 E15.54852
G1 X139.479 Y130.749 E15.59204
G1 X138.906 Y131.063 E15.63006
G1 X138.277 Y131.247 E15.6682
G1 X137.226 Y131.305 E15.72946
G1 X136.329 Y131.19 E15.78209
G1 X134.543 Y130.647 E15.89072
G1 X132.988 Y129.819 E15.99324
G1 X131.87 Y128.898 E16.07754
G1 X131.046 Y127.89 E16.15331
G1 X130.361 Y126.6 E16.23831
G1 X129.507 Y124.435 E16.37375
G1 X128.825 Y123.628 E16.43524
G1 X128.159 Y123.239 E16.48012
G1 X126.862 Y122.846 E16.55899
G1 X124.602 Y122.517 E16.6919
G1 X119.761 Y122.275 E16.97397
G1 X114.843 Y122.264 E17.26017
G1 X111.081 Y122.384 E17.47921
G1 X108.163 Y122.648 E17.64972
G1 X106.334 Y123.015 E17.75828
G1 X105.351 Y123.411 E17.81995
G1 X104.809 Y123.818 E17.85939
G1 X104.533 Y124.138 E17.88398
G1 X104.152 Y124.793 E17.92808
G1 X103.48 Y126.609 E18.04077
G1 X102.746 Y127.974 E18.13096
G1 X101.82 Y129.059 E18.21397
G1 X100.595 Y130 E18.30386
G1 X99.769 Y130.451 E18.35863
G1 X98.862 Y130.83 E18.41584
G1 X97.927 Y131.114 E18.47271
G1 X96.628 Y131.32 E18.54925
G1 X95.659 Y131.279 E18.60569
G1 X94.96 Y131.086 E18.64789
G1 X94.232 Y130.666 E18.6968
G1 X93.707 Y130.105 E18.74151
G1 X93.328 Y129.248 E18.79604
G1 X93.252 Y128.74 E18.82593
G1 X93.311 Y127.988 E18.86983
G1 X93.512 Y127.355 E18.90848
G1 X93.814 Y126.766 E18.947
G1 X95.98 Y123.839 E19.1589
G1 X96.399 Y123.014 E19.21275
G1 X96.454 Y122.557 E19.23954
G1 X96.155 Y120.166 E19.37977
G1 X96.155 Y119.522 E19.41725
G1 X96.311 Y118.342 E19.48652
G1 X96.658 Y117.245 E19.55348
G1 X96.92 Y116.677 E19.58988
G1 X98.011 Y115.011 E19.70577
G1 X97.474 Y114.283 E19.75841
G1 X96.846 Y113.208 E19.83086
G1 X96.418 Y112.112 E19.89933
G1 X96.271 Y111.515 E19.93511
G1 X96.176 Y110.877 E19.97265
G1 X96.15 Y109.826 E20.03383
G1 X96.446 Y107.472 E20.1719
G1 X96.374 Y106.954 E20.20233
G1 X95.97 Y106.19 E20.25262
G1 X93.948 Y103.499 E20.4485
G1 X93.599 Y102.892 E20.48925
G1 X93.334 Y102.194 E20.5327
G1 X93.23 Y101.475 E20.57498
G1 X93.398 Y100.502 E20.63244
G1 X93.809 Y99.77 E20.68129
G1 X93.989 Y99.602 E20.69562
G1 X93.989 Y99.602 F12000
G1 X94.327 Y99.962
G1 F3000
G1 X94.623 Y99.684 E20.71925
G1 X95.142 Y99.402 E20.75362
G1 X95.635 Y99.26 E20.78348
G1 X96.587 Y99.209 E20.83896
G1 X97.422 Y99.318 E20.88797
G1 X99.079 Y99.822 E20.98876
G1 X100.487 Y100.56 E21.08127
G1 X101.613 Y101.476 E21.16574
G1 X102.375 Y102.412 E21.23598
G1 X103.012 Y103.618 E21.31535
G1 X103.687 Y105.437 E21.42826
G1 X104.124 Y106.184 E21.47862
G1 X104.744 Y106.815 E21.5301
G1 X105.559 Y107.268 E21.58436
G1 X107.016 Y107.686 E21.67257
G1 X108.086 Y107.864 E21.73569
G1 X111.045 Y108.128 E21.90857
G1 X114.829 Y108.245 E22.12888
G1 X119.38 Y108.236 E22.39373
G1 X121.526 Y108.178 E22.51866
G1 X124.877 Y107.956 E22.7141
G1 X127.108 Y107.606 E22.84552
G1 X128.442 Y107.174 E22.92712
G1 X129.129 Y106.757 E22.97389
G1 X129.703 Y106.155 E23.0223
G1 X130.132 Y105.417 E23.07198
G1 X130.785 Y103.644 E23.18194
G1 X131.173 Y102.828 E23.23452
G1 X131.739 Y101.977 E23.294
G1 X132.473 Y101.193 E23.3565
G1 X133.631 Y100.344 E23.44006
G1 X134.87 Y99.741 E23.52025
G1 X135.549 Y99.503 E23.56212
G1 X136.903 Y99.209 E23.64275
G1 X138.138 Y99.224 E23.71463
G1 X138.657 Y99.367 E23.74596
G1 X139.13 Y99.613 E23.77699
G1 X139.573 Y100.004 E23.81138
G1 X139.781 Y100.305 E23.83267
G1 X140.03 Y100.925 E23.87155
G1 X140.081 Y101.431 E23.90115
G1 X140.018 Y101.949 E23.93152
G1 X139.829 Y102.509 E23.96592
G1 X139.531 Y103.065 E24.00263
G1 X137.814 Y105.339 E24.16845
G1 X137.34 Y106.029 E24.21717
G1 X136.979 Y106.748 E24.26399
G1 X136.88 Y107.545 E24.31073
G1 X137.121 Y109.18 E24.40691
G1 X137.183 Y110.154 E24.46371
G1 X136.998 Y111.693 E24.55392
G1 X136.825 Y112.267 E24.58881
G1 X136.355 Y113.305 E24.65512
G1 X135.705 Y114.31 E24.72477
G1 X135.151 Y115.006 E24.77654
G1 X135.936 Y115.999 E24.8502
G1 X136.528 Y117.01 E24.91838
G1 X136.934 Y118.046 E24.98313
G1 X137.071 Y118.601 E25.0164
G1 X137.18 Y120.168 E25.10781
G1 X136.883 Y122.519 E25.24571
G1 X136.976 Y123.209 E25.28623
G1 X137.436 Y124.091 E25.34412
G1 X139.463 Y126.791 E25.5406
G1 X140.003 Y127.919 E25.61338
G1 X140.097 Y128.528 E25.64924
G1 X139.965 Y129.324 E25.6962
G1 X139.626 Y129.933 E25.73676
G1 X139.21 Y130.326 E25.77006
G1 X138.69 Y130.611 E25.80457
G1 X138.197 Y130.753 E25.83443
G1 X137.244 Y130.806 E25.88998
G1 X136.409 Y130.696 E25.93899
G1 X134.724 Y130.181 E26.04153
G1 X133.258 Y129.398 E26.13825
G1 X132.217 Y128.538 E26.21683
G1 X131.454 Y127.602 E26.28711
G1 X130.817 Y126.396 E26.36648
G1 X130.142 Y124.575 E26.4795
G1 X129.712 Y123.838 E26.52916
G1 X129.138 Y123.237 E26.57752
G1 X128.359 Y122.78 E26.63008
G1 X126.969 Y122.357 E26.71463
G1 X124.651 Y122.019 E26.85095
G1 X119.771 Y121.775 E27.1353
G1 X114.836 Y121.764 E27.42249
G1 X111.053 Y121.885 E27.64275
G1 X108.094 Y122.152 E27.81565
G1 X106.193 Y122.535 E27.9285
G1 X105.104 Y122.975 E27.99685
G1 X104.454 Y123.464 E28.04419
G1 X104.133 Y123.837 E28.07283
G1 X103.697 Y124.584 E28.12316
G1 X103.014 Y126.429 E28.23765
G1 X102.327 Y127.701 E28.32178
G1 X101.483 Y128.69 E28.39744
G1 X100.342 Y129.568 E28.48122
G1 X99.541 Y130.006 E28.53435
G1 X98.681 Y130.364 E28.58856
G1 X97.818 Y130.626 E28.64105
G1 X96.609 Y130.821 E28.71232
G1 X95.764 Y130.79 E28.76153
G1 X95.174 Y130.634 E28.79704
G1 X94.566 Y130.292 E28.83764
G1 X94.126 Y129.831 E28.87473
G1 X93.817 Y129.144 E28.91857
G1 X93.753 Y128.743 E28.9422
G1 X93.797 Y128.108 E28.97924
G1 X93.968 Y127.562 E29.01254
G1 X94.237 Y127.033 E29.04708
G1 X96.401 Y124.109 E29.25877
G1 X96.878 Y123.163 E29.32042
G1 X96.955 Y122.539 E29.35701
G1 X96.654 Y120.155 E29.49685
G1 X96.654 Y119.554 E29.53183
G1 X96.801 Y118.441 E29.59716
G1 X97.37 Y116.896 E29.69297
G1 X98.247 Y115.532 E29.78734
G1 X98.685 Y115.013 E29.82686
G1 X97.892 Y114.009 E29.90131
G1 X97.3 Y112.998 E29.96949
G1 X96.895 Y111.962 E30.03422
G1 X96.759 Y111.408 E30.06742
G1 X96.65 Y109.842 E30.15877
G1 X96.946 Y107.493 E30.29655
G1 X96.853 Y106.803 E30.33707
G1 X96.391 Y105.92 E30.39506
G1 X94.374 Y103.238 E30.59035
G1 X94.057 Y102.691 E30.62714
G1 X93.823 Y102.09 E30.66467
G1 X93.731 Y101.48 E30.70057
G1 X93.865 Y100.683 E30.7476
G1 X94.206 Y100.075 E30.78817
G1 X94.283 Y100.003 E30.7943
G1 X94.283 Y100.003 F12000
G1 X94.618 Y100.367
G1 F3000
G1 X94.935 Y100.076 E30.81934
G1 X95.35 Y99.857 E30.84665
G1 X96.095 Y99.707 E30.89088
G1 X97.341 Y99.812 E30.96365
G1 X98.899 Y100.289 E31.05847
G1 X100.223 Y100.984 E31.14549
G1 X101.264 Y101.835 E31.22374
G1 X101.954 Y102.682 E31.28732
G1 X102.555 Y103.822 E31.36232
G1 X103.232 Y105.647 E31.4756
G1 X103.724 Y106.486 E31.5322
G1 X104.442 Y107.215 E31.59175
G1 X105.368 Y107.731 E31.65344
G1 X106.916 Y108.176 E31.74717
G1 X109.376 Y108.511 E31.89165
G1 X112.962 Y108.707 E32.10065
G1 X117.348 Y108.756 E32.35591
G1 X121.545 Y108.678 E32.6002
G1 X124.93 Y108.453 E32.79762
G1 X127.222 Y108.093 E32.93264
G1 X128.648 Y107.63 E33.01989
G1 X129.443 Y107.148 E33.07399
G1 X130.106 Y106.453 E33.12989
G1 X130.587 Y105.626 E33.18557
G1 X131.252 Y103.823 E33.2974
G1 X131.607 Y103.077 E33.34548
G1 X132.137 Y102.28 E33.40118
G1 X132.796 Y101.575 E33.45734
G1 X133.895 Y100.769 E33.53665
G1 X135.045 Y100.209 E33.61109
G1 X136.324 Y99.814 E33.68899
G1 X137.607 Y99.672 E33.76411
G1 X138.458 Y99.826 E33.81444
G1 X138.829 Y100.013 E33.83862
G1 X139.185 Y100.321 E33.86601
G1 X139.536 Y101.014 E33.91122
G1 X139.58 Y101.451 E33.93678
G1 X139.526 Y101.856 E33.96056
G1 X139.11 Y102.796 E34.02038
G1 X137.41 Y105.044 E34.1844
G1 X136.916 Y105.763 E34.23517
G1 X136.508 Y106.576 E34.28811
G1 X136.375 Y107.225 E34.32666
G1 X136.38 Y107.586 E34.34767
G1 X136.624 Y109.242 E34.44508
G1 X136.683 Y110.149 E34.49797
G1 X136.511 Y111.581 E34.5819
G1 X135.913 Y113.072 E34.67539
G1 X135.299 Y114.018 E34.74102
G1 X134.475 Y114.984 E34.81491
G1 X135.173 Y115.803 E34.87753
G1 X135.823 Y116.753 E34.94452
G1 X136.298 Y117.727 E35.00758
G1 X136.582 Y118.708 E35.06701
G1 X136.681 Y120.152 E35.15124
G1 X136.383 Y122.497 E35.2888
G1 X136.511 Y123.392 E35.34141
G1 X137.014 Y124.361 E35.40495
G1 X139.037 Y127.053 E35.60092
G1 X139.514 Y128.029 E35.66414
G1 X139.596 Y128.529 E35.69363
G1 X139.496 Y129.15 E35.73023
G1 X139.229 Y129.628 E35.76209
G1 X138.897 Y129.936 E35.78844
G1 X138.482 Y130.156 E35.81577
G1 X137.735 Y130.307 E35.86012
G1 X136.49 Y130.203 E35.93283
G1 X134.906 Y129.715 E36.02929
