; generated by PrusaSlicer 2.7.4+win64 on 2024-06-14 at 05:52:57 UTC

; 

; external perimeters extrusion width = 0.45mm
; perimeters extrusion width = 0.40mm
; infill extrusion width = 0.45mm
; solid infill extrusion width = 0.50mm
; top infill extrusion width = 0.45mm
; first layer extrusion width = 0.56mm

M201 X2000 Y2000 Z800 E2000 ; sets maximum accelerations, mm/sec^2
M203 X300 Y250 Z8 E100 ; sets maximum feedrates, mm / sec
M204 S2000 T2000 ; sets acceleration (S) and retract acceleration (R), mm/sec^2
M205 X15.00 Y10.00 Z2.00 E10.00 ; sets the jerk limits, mm/sec
M205 S0 T0 ; sets the minimum extruding and travel feed rate, mm/sec
;TYPE:Custom
G90 ; use absolute coordinates
M83 ; extruder relative mode
M104 S200 ; set extruder temp
M140 S60 ; set bed temp
M190 S60 ; wait for bed temp
M109 S200 ; wait for extruder temp
G28                                        ; move X/Y/Z to min endstops
G1 Z0.28                                   ; lift nozzle a bit 
G92 E0 
G1 Y3 F1800                                    ; zero the extruded length 
G1 X60  E25 F500                       ; Extrude 25mm of filament in a 5cm line. 
G92 E0                                     ; zero the extruded length again 
G1 E-2 F500                                ; Retract a little 
G1 X70 F4000                              ; Quickly wipe away from the filament line
M117
G21 ; set units to millimeters
G90 ; use absolute coordinates
M82 ; use absolute distances for extrusion
G92 E0
M107
;LAYER_CHANGE
;Z:0.28
;HEIGHT:0.28
G1 E-2 F6000
G92 E0
G1 Z.28 F12000
G1 X93.414 Y91.459
G1 E2 F6000
G92 E0
M204 S2000
;TYPE:Skirt/Brim
;WIDTH:0.56
G1 F3000
G1 X94.039 Y90.868 E.05006
G1 X94.715 Y90.492 E.09508
G1 X95.397 Y90.285 E.13656
G1 X96.686 Y90.209 E.2117
G1 X97.638 Y90.338 E.26761
G1 X98.568 Y90.574 E.32345
G1 X99.478 Y90.902 E.37974
G1 X101.015 Y91.706 E.48068
G1 X102.306 Y92.752 E.57737
G1 X103.206 Y93.852 E.66008
G1 X103.925 Y95.206 E.7493
G1 X104.596 Y97.014 E.86153
G1 X104.923 Y97.576 E.89937
G1 X105.588 Y98.169 E.95122
G1 X106.466 Y98.519 E1.00623
G1 X108.224 Y98.87 E1.11056
G1 X111.101 Y99.126 E1.27865
G1 X114.841 Y99.241 E1.4964
G1 X119.362 Y99.232 E1.7595
G1 X121.487 Y99.175 E1.88321
G1 X124.771 Y98.957 E2.07474
G1 X126.882 Y98.627 E2.19908
G1 X128.028 Y98.258 E2.26914
G1 X128.502 Y97.971 E2.30139
G1 X129.064 Y97.302 E2.35224
G1 X129.861 Y95.258 E2.47991
G1 X130.617 Y93.818 E2.57456
G1 X131.394 Y92.847 E2.64693
G1 X132.452 Y91.921 E2.72875
G1 X133.789 Y91.121 E2.81942
G1 X135.274 Y90.537 E2.91228
G1 X136.824 Y90.208 E3.00449
G1 X137.699 Y90.17 E3.05546
G1 X138.363 Y90.245 E3.09435
G1 X139.073 Y90.452 E3.13739
G1 X139.746 Y90.819 E3.182
G1 X140.28 Y91.291 E3.22348
G1 X140.688 Y91.877 E3.26503
G1 X140.984 Y92.615 E3.3113
G1 X141.08 Y93.381 E3.35623
G1 X140.981 Y94.218 E3.40528
G1 X140.746 Y94.904 E3.44748
G1 X140.4 Y95.557 E3.49049
G1 X138.621 Y97.925 E3.66285
G1 X137.925 Y99.077 E3.74118
G1 X137.879 Y99.461 E3.76369
G1 X138.113 Y101.05 E3.85716
G1 X138.182 Y102.111 E3.91904
G1 X138.094 Y103.31 E3.989
G1 X137.775 Y104.574 E4.06486
G1 X137.52 Y105.209 E4.10468
G1 X136.896 Y106.343 E4.18
G1 X136.442 Y106.998 E4.22638
G1 X137.436 Y108.585 E4.33536
G1 X137.887 Y109.739 E4.40746
G1 X138.052 Y110.404 E4.44733
G1 X138.152 Y111.086 E4.48744
G1 X138.18 Y112.193 E4.55188
G1 X137.883 Y114.574 E4.69152
G1 X137.931 Y114.897 E4.71052
G1 X138.278 Y115.547 E4.7534
G1 X140.317 Y118.267 E4.95123
G1 X140.686 Y118.916 E4.99468
G1 X140.982 Y119.709 E5.04394
G1 X141.098 Y120.535 E5.09248
G1 X140.898 Y121.684 E5.16035
G1 X140.421 Y122.538 E5.21728
G1 X139.796 Y123.132 E5.26746
G1 X139.12 Y123.511 E5.31256
G1 X138.396 Y123.729 E5.35656
G1 X137.178 Y123.799 E5.42756
G1 X136.223 Y123.675 E5.4836
G1 X135.286 Y123.44 E5.53982
G1 X134.34 Y123.1 E5.59832
G1 X132.719 Y122.237 E5.70519
G1 X131.523 Y121.254 E5.79528
G1 X130.637 Y120.175 E5.87653
G1 X129.904 Y118.8 E5.96721
G1 X129.075 Y116.684 E6.09946
G1 X128.512 Y116.016 E6.1503
G1 X127.959 Y115.695 E6.18751
G1 X126.756 Y115.331 E6.26065
G1 X124.553 Y115.01 E6.39021
G1 X119.752 Y114.771 E6.66995
G1 X114.849 Y114.76 E6.95528
G1 X111.11 Y114.88 E7.17298
G1 X108.233 Y115.139 E7.34108
G1 X106.475 Y115.491 E7.44542
G1 X105.597 Y115.843 E7.50047
G1 X104.933 Y116.436 E7.55228
G1 X104.607 Y116.998 E7.59009
G1 X103.946 Y118.786 E7.70103
G1 X103.576 Y119.569 E7.75143
G1 X102.681 Y120.874 E7.84352
G1 X101.595 Y121.907 E7.93074
G1 X100.846 Y122.428 E7.98384
G1 X99.998 Y122.892 E8.04009
G1 X99.043 Y123.292 E8.10034
G1 X98.036 Y123.598 E8.16159
G1 X97.21 Y123.759 E8.21056
G1 X96.103 Y123.821 E8.27508
G1 X95.548 Y123.763 E8.30755
G1 X94.738 Y123.532 E8.35657
G1 X93.949 Y123.075 E8.40963
G1 X93.319 Y122.418 E8.4626
G1 X93.044 Y121.935 E8.49494
G1 X92.837 Y121.343 E8.53144
G1 X92.751 Y120.727 E8.56764
G1 X92.826 Y119.862 E8.61817
G1 X93.058 Y119.142 E8.66219
G1 X93.392 Y118.495 E8.70456
G1 X95.558 Y115.565 E8.9166
G1 X95.926 Y114.847 E8.96355
G1 X95.954 Y114.579 E8.97923
G1 X95.655 Y112.172 E9.12038
G1 X95.656 Y111.485 E9.16036
G1 X95.821 Y110.239 E9.2335
G1 X96.192 Y109.06 E9.30543
G1 X96.471 Y108.454 E9.34425
G1 X97.395 Y107.014 E9.44382
G1 X96.393 Y105.414 E9.55368
G1 X95.942 Y104.26 E9.62578
G1 X95.778 Y103.596 E9.66558
G1 X95.678 Y102.914 E9.70569
G1 X95.651 Y101.808 E9.77007
G1 X95.947 Y99.43 E9.90953
G1 X95.898 Y99.108 E9.92848
G1 X95.549 Y98.456 E9.97152
G1 X93.52 Y95.755 E10.16811
G1 X93.139 Y95.085 E10.21296
G1 X92.843 Y94.29 E10.26233
G1 X92.729 Y93.462 E10.31097
G1 X92.934 Y92.312 E10.37895
G1 X93.384 Y91.511 E10.43242
G1 X93.384 Y91.511 F12000
G1 X93.809 Y91.766
G1 F3000
G1 X94.355 Y91.256 E10.4759
G1 X94.928 Y90.945 E10.51384
G1 X95.518 Y90.77 E10.54965
G1 X96.636 Y90.707 E10.61482
G1 X97.529 Y90.826 E10.66725
G1 X99.278 Y91.36 E10.77367
G1 X100.751 Y92.131 E10.87042
G1 X101.96 Y93.113 E10.96106
G1 X102.796 Y94.139 E11.03808
G1 X103.468 Y95.41 E11.12175
G1 X104.141 Y97.224 E11.23435
G1 X104.524 Y97.878 E11.27846
G1 X104.8 Y98.199 E11.3031
G1 X105.342 Y98.605 E11.34251
G1 X106.325 Y99 E11.40416
G1 X108.155 Y99.365 E11.51275
G1 X111.073 Y99.625 E11.68324
G1 X114.835 Y99.741 E11.90227
G1 X119.371 Y99.732 E12.16624
G1 X121.506 Y99.675 E12.29053
G1 X124.824 Y99.455 E12.48404
G1 X126.995 Y99.115 E12.61192
G1 X128.235 Y98.714 E12.68776
G1 X128.816 Y98.362 E12.72729
G1 X129.3 Y97.854 E12.76812
G1 X129.677 Y97.205 E12.8118
G1 X130.318 Y95.461 E12.91993
G1 X130.739 Y94.575 E12.97702
G1 X131.354 Y93.654 E13.04147
G1 X132.149 Y92.808 E13.10903
G1 X133.366 Y91.916 E13.19684
G1 X134.695 Y91.268 E13.28288
G1 X136.132 Y90.829 E13.37032
G1 X137.666 Y90.669 E13.46008
G1 X138.248 Y90.732 E13.49415
G1 X138.863 Y90.906 E13.53134
G1 X139.438 Y91.214 E13.5693
G1 X139.926 Y91.646 E13.60723
G1 X140.234 Y92.089 E13.63863
G1 X140.508 Y92.769 E13.68129
G1 X140.581 Y93.407 E13.71866
G1 X140.5 Y94.08 E13.75811
G1 X140.28 Y94.722 E13.7976
G1 X139.966 Y95.309 E13.83634
G1 X138.218 Y97.63 E14.00543
G1 X137.764 Y98.291 E14.0521
G1 X137.445 Y98.925 E14.0934
G1 X137.379 Y99.501 E14.12714
G1 X137.617 Y101.113 E14.22197
G1 X137.682 Y102.13 E14.28128
G1 X137.602 Y103.221 E14.34494
G1 X137.48 Y103.822 E14.38063
G1 X137.3 Y104.418 E14.41686
G1 X136.789 Y105.55 E14.48914
G1 X135.807 Y106.981 E14.59014
G1 X136.353 Y107.72 E14.64361
G1 X136.982 Y108.796 E14.71614
G1 X137.411 Y109.891 E14.78458
G1 X137.559 Y110.489 E14.82043
G1 X137.654 Y111.128 E14.85803
G1 X137.68 Y112.179 E14.91921
G1 X137.384 Y114.537 E15.05751
G1 X137.455 Y115.054 E15.08788
G1 X137.857 Y115.817 E15.13807
G1 X139.889 Y118.526 E15.33514
G1 X140.226 Y119.114 E15.37458
G1 X140.492 Y119.81 E15.41794
G1 X140.597 Y120.527 E15.46011
G1 X140.432 Y121.499 E15.51748
G1 X140.024 Y122.233 E15.56635
G1 X139.479 Y122.745 E15.60987
G1 X138.906 Y123.059 E15.64789
G1 X138.277 Y123.243 E15.68603
G1 X137.226 Y123.302 E15.74729
G1 X136.329 Y123.186 E15.79993
G1 X134.543 Y122.643 E15.90856
G1 X132.988 Y121.816 E16.01106
G1 X131.87 Y120.894 E16.09539
G1 X131.046 Y119.886 E16.17116
G1 X130.361 Y118.596 E16.25616
G1 X129.507 Y116.431 E16.3916
G1 X128.825 Y115.624 E16.45309
G1 X128.159 Y115.235 E16.49797
G1 X126.862 Y114.842 E16.57684
G1 X124.602 Y114.513 E16.70975
G1 X119.761 Y114.271 E16.99182
G1 X114.843 Y114.26 E17.27802
G1 X111.081 Y114.38 E17.49706
G1 X108.163 Y114.644 E17.66757
G1 X106.334 Y115.011 E17.77613
G1 X105.351 Y115.407 E17.8378
G1 X104.809 Y115.814 E17.87724
G1 X104.533 Y116.134 E17.90183
G1 X104.152 Y116.789 E17.94593
G1 X103.48 Y118.605 E18.05862
G1 X102.746 Y119.97 E18.14881
G1 X101.82 Y121.055 E18.23182
G1 X100.595 Y121.996 E18.32171
G1 X99.769 Y122.447 E18.37648
G1 X98.862 Y122.826 E18.43369
G1 X97.927 Y123.11 E18.49056
G1 X96.628 Y123.316 E18.5671
G1 X95.659 Y123.275 E18.62354
G1 X94.96 Y123.082 E18.66574
G1 X94.232 Y122.662 E18.71465
G1 X93.707 Y122.101 E18.75936
G1 X93.328 Y121.244 E18.81389
G1 X93.252 Y120.736 E18.84378
G1 X93.311 Y119.984 E18.88768
G1 X93.512 Y119.351 E18.92633
G1 X93.814 Y118.762 E18.96485
G1 X95.98 Y115.835 E19.17675
G1 X96.399 Y115.01 E19.2306
G1 X96.454 Y114.553 E19.25739
G1 X96.155 Y112.162 E19.39762
G1 X96.155 Y111.518 E19.4351
G1 X96.311 Y110.338 E19.50437
G1 X96.658 Y109.241 E19.57133
G1 X96.92 Y108.673 E19.60773
G1 X98.011 Y107.007 E19.72362
G1 X97.474 Y106.279 E19.77626
G1 X96.846 Y105.204 E19.84871
G1 X96.418 Y104.108 E19.91718
G1 X96.271 Y103.511 E19.95296
G1 X96.176 Y102.873 E19.9905
G1 X96.15 Y101.823 E20.05162
G1 X96.446 Y99.468 E20.18975
G1 X96.374 Y98.95 E20.22018
G1 X95.97 Y98.186 E20.27047
G1 X93.948 Y95.495 E20.46635
G1 X93.599 Y94.888 E20.5071
G1 X93.334 Y94.19 E20.55055
G1 X93.23 Y93.471 E20.59283
G1 X93.398 Y92.498 E20.65029
G1 X93.78 Y91.818 E20.69568
G1 X93.78 Y91.818 F12000
G1 X94.206 Y92.071
G1 F3000
G1 X94.623 Y91.68 E20.72895
G1 X95.142 Y91.398 E20.76332
G1 X95.635 Y91.256 E20.79318
G1 X96.587 Y91.205 E20.84866
G1 X97.422 Y91.314 E20.89767
G1 X99.079 Y91.818 E20.99846
G1 X100.487 Y92.556 E21.09097
G1 X101.613 Y93.472 E21.17544
G1 X102.375 Y94.408 E21.24568
G1 X103.012 Y95.614 E21.32505
G1 X103.687 Y97.433 E21.43796
G1 X104.124 Y98.18 E21.48832
G1 X104.744 Y98.811 E21.5398
G1 X105.559 Y99.264 E21.59406
G1 X107.016 Y99.682 E21.68227
G1 X108.086 Y99.86 E21.74539
G1 X111.045 Y100.124 E21.91827
G1 X114.829 Y100.241 E22.13858
G1 X119.38 Y100.232 E22.40343
G1 X121.526 Y100.174 E22.52836
G1 X124.877 Y99.952 E22.7238
G1 X127.108 Y99.602 E22.85522
G1 X128.442 Y99.17 E22.93682
G1 X129.129 Y98.753 E22.98359
G1 X129.703 Y98.151 E23.032
G1 X130.132 Y97.413 E23.08168
G1 X130.785 Y95.64 E23.19164
G1 X131.173 Y94.824 E23.24422
G1 X131.739 Y93.973 E23.3037
G1 X132.473 Y93.19 E23.36616
G1 X133.631 Y92.341 E23.44972
G1 X134.87 Y91.737 E23.52993
G1 X135.549 Y91.499 E23.5718
G1 X136.903 Y91.205 E23.65243
G1 X138.138 Y91.22 E23.72431
G1 X138.657 Y91.363 E23.75564
G1 X139.13 Y91.609 E23.78667
G1 X139.573 Y92 E23.82106
G1 X139.781 Y92.301 E23.84235
G1 X140.03 Y92.921 E23.88123
G1 X140.081 Y93.427 E23.91083
G1 X140.018 Y93.945 E23.9412
G1 X139.829 Y94.505 E23.9756
G1 X139.531 Y95.062 E24.01236
G1 X137.814 Y97.335 E24.17814
G1 X137.34 Y98.025 E24.22686
G1 X136.979 Y98.744 E24.27368
G1 X136.88 Y99.542 E24.32048
G1 X137.121 Y101.176 E24.4166
G1 X137.183 Y102.15 E24.4734
G1 X136.998 Y103.689 E24.56361
G1 X136.825 Y104.263 E24.5985
G1 X136.355 Y105.301 E24.66481
G1 X135.705 Y106.306 E24.73446
G1 X135.151 Y107.002 E24.78623
G1 X135.936 Y107.995 E24.85989
G1 X136.528 Y109.006 E24.92807
G1 X136.934 Y110.043 E24.99288
G1 X137.071 Y110.597 E25.02609
G1 X137.18 Y112.164 E25.1175
G1 X136.883 Y114.515 E25.2554
G1 X136.976 Y115.205 E25.29592
G1 X137.436 Y116.087 E25.35381
G1 X139.463 Y118.787 E25.55029
G1 X140.003 Y119.915 E25.62307
G1 X140.097 Y120.524 E25.65893
G1 X139.965 Y121.32 E25.70589
G1 X139.626 Y121.93 E25.7465
G1 X139.21 Y122.322 E25.77976
G1 X138.69 Y122.607 E25.81427
G1 X138.197 Y122.749 E25.84413
G1 X137.244 Y122.802 E25.89968
G1 X136.409 Y122.693 E25.94869
G1 X134.724 Y122.177 E26.05124
G1 X133.258 Y121.395 E26.14793
G1 X132.217 Y120.534 E26.22655
G1 X131.454 Y119.598 E26.29683
G1 X130.817 Y118.392 E26.3762
G1 X130.142 Y116.571 E26.48922
G1 X129.712 Y115.834 E26.53888
G1 X129.138 Y115.233 E26.58724
G1 X128.359 Y114.776 E26.6398
G1 X126.969 Y114.353 E26.72435
G1 X124.651 Y114.015 E26.86067
G1 X119.771 Y113.771 E27.14502
G1 X114.836 Y113.76 E27.43221
G1 X111.053 Y113.881 E27.65247
G1 X108.094 Y114.148 E27.82537
G1 X106.193 Y114.531 E27.93822
G1 X105.104 Y114.971 E28.00657
G1 X104.454 Y115.46 E28.05391
G1 X104.133 Y115.833 E28.08255
G1 X103.697 Y116.58 E28.13288
G1 X103.014 Y118.425 E28.24737
G1 X102.327 Y119.697 E28.3315
G1 X101.483 Y120.686 E28.40716
G1 X100.342 Y121.564 E28.49094
G1 X99.541 Y122.002 E28.54407
G1 X98.681 Y122.36 E28.59828
G1 X97.818 Y122.622 E28.65077
G1 X96.609 Y122.817 E28.72204
G1 X95.764 Y122.786 E28.77125
G1 X95.174 Y122.63 E28.80676
G1 X94.566 Y122.288 E28.84736
G1 X94.126 Y121.827 E28.88445
G1 X93.817 Y121.14 E28.92829
G1 X93.753 Y120.74 E28.95186
G1 X93.797 Y120.104 E28.98896
G1 X93.968 Y119.558 E29.02226
G1 X94.237 Y119.029 E29.0568
G1 X96.401 Y116.105 E29.26849
G1 X96.878 Y115.159 E29.33014
G1 X96.955 Y114.536 E29.36667
G1 X96.654 Y112.152 E29.50651
G1 X96.654 Y111.55 E29.54154
G1 X96.801 Y110.437 E29.60687
G1 X97.37 Y108.892 E29.70268
G1 X98.247 Y107.529 E29.797
G1 X98.685 Y107.009 E29.83657
G1 X97.892 Y106.005 E29.91102
G1 X97.3 Y104.994 E29.9792
G1 X96.895 Y103.958 E30.04393
G1 X96.759 Y103.404 E30.07713
G1 X96.65 Y101.838 E30.16848
G1 X96.946 Y99.489 E30.30626
G1 X96.853 Y98.799 E30.34678
G1 X96.391 Y97.916 E30.40477
G1 X94.374 Y95.234 E30.60006
G1 X94.057 Y94.687 E30.63685
G1 X93.823 Y94.086 E30.67438
G1 X93.731 Y93.476 E30.71028
G1 X93.865 Y92.679 E30.75731
G1 X94.177 Y92.123 E30.79441
G1 X94.177 Y92.123 F12000
G1 X94.602 Y92.378
G1 F3000
G1 X94.935 Y92.072 E30.82073
G1 X95.35 Y91.853 E30.84804
G1 X96.095 Y91.703 E30.89227
G1 X97.341 Y91.808 E30.96504
G1 X98.899 Y92.285 E31.05986
G1 X100.223 Y92.98 E31.14688
G1 X101.264 Y93.831 E31.22513
G1 X101.954 Y94.678 E31.28871
G1 X102.555 Y95.818 E31.36371
G1 X103.232 Y97.643 E31.47699
G1 X103.724 Y98.482 E31.53359
G1 X104.442 Y99.211 E31.59314
G1 X105.368 Y99.727 E31.65483
G1 X106.916 Y100.172 E31.74856
G1 X109.376 Y100.507 E31.89304
G1 X112.962 Y100.703 E32.10204
G1 X117.348 Y100.752 E32.3573
G1 X121.545 Y100.674 E32.60159
G1 X124.93 Y100.449 E32.79901
G1 X127.222 Y100.089 E32.93403
G1 X128.648 Y99.626 E33.02128
G1 X129.443 Y99.144 E33.07538
G1 X130.106 Y98.449 E33.13128
G1 X130.587 Y97.622 E33.18696
G1 X131.252 Y95.819 E33.29879
G1 X131.607 Y95.073 E33.34687
G1 X132.137 Y94.276 E33.40257
G1 X132.796 Y93.571 E33.45873
G1 X133.895 Y92.765 E33.53804
G1 X135.045 Y92.205 E33.61248
G1 X136.324 Y91.81 E33.69038
G1 X137.607 Y91.668 E33.7655
G1 X138.458 Y91.822 E33.81583
G1 X138.829 Y92.009 E33.84001
G1 X139.185 Y92.317 E33.8674
G1 X139.536 Y93.01 E33.91261
G1 X139.58 Y93.447 E33.93817
G1 X139.526 Y93.852 E33.96195
G1 X139.11 Y94.792 E34.02177
G1 X137.41 Y97.04 E34.18579
G1 X136.916 Y97.759 E34.23656
G1 X136.508 Y98.572 E34.2895
G1 X136.375 Y99.221 E34.32805
G1 X136.38 Y99.582 E34.34906
G1 X136.624 Y101.238 E34.44647
G1 X136.683 Y102.145 E34.49936
G1 X136.511 Y103.578 E34.58335
G1 X135.913 Y105.068 E34.67678
G1 X135.299 Y106.014 E34.74241
G1 X134.475 Y106.98 E34.8163
G1 X135.173 Y107.799 E34.87892
G1 X135.823 Y108.749 E34.94591
G1 X136.297 Y109.723 E35.00895
G1 X136.582 Y110.704 E35.0684
G1 X136.681 Y112.148 E35.15263
G1 X136.383 Y114.494 E35.29025
G1 X136.511 Y115.388 E35.34281
G1 X137.014 Y116.357 E35.40635
G1 X139.037 Y119.049 E35.60232
G1 X139.514 Y120.025 E35.66554
G1 X139.596 Y120.525 E35.69503
G1 X139.496 Y121.146 E35.73163
G1 X139.229 Y121.624 E35.76349
G1 X138.897 Y121.932 E35.78984
G1 X138.482 Y122.152 E35.81717
G1 X137.735 Y122.303 E35.86152
G1 X136.49 Y122.199 E35.93423
G1 X134.906 Y121.711 E36.03069
G1 X133.549 Y120.987 E36.1202
G1 X132.565 Y120.175 E36.19444
G1 X131.875 Y119.329 E36.25797
G1 X131.274 Y118.188 E36.33302
G1 X130.597 Y116.362 E36.44635
G1 X130.115 Y115.536 E36.502
G1 X129.451 Y114.842 E36.5579
G1 X128.558 Y114.317 E36.61818
G1 X127.075 Y113.865 E36.7084
