; generated by PrusaSlicer 2.7.4+win64 on 2024-06-14 at 05:55:45 UTC

; 

; external perimeters extrusion width = 0.45mm
; perimeters extrusion width = 0.40mm
; infill extrusion width = 0.45mm
; solid infill extrusion width = 0.50mm
; top infill extrusion width = 0.45mm
; first layer extrusion width = 0.56mm

M201 X2000 Y2000 Z800 E2000 ; sets maximum accelerations, mm/sec^2
M203 X300 Y250 Z8 E100 ; sets maximum feedrates, mm / sec
M204 S2000 T2000 ; sets acceleration (S) and retract acceleration (R), mm/sec^2
M205 X15.00 Y10.00 Z2.00 E10.00 ; sets the jerk limits, mm/sec
M205 S0 T0 ; sets the minimum extruding and travel feed rate, mm/sec
;TYPE:Custom
G90 ; use absolute coordinates
M83 ; extruder relative mode
M104 S200 ; set extruder temp
M140 S60 ; set bed temp
M190 S60 ; wait for bed temp
M109 S200 ; wait for extruder temp
G28                                        ; move X/Y/Z to min endstops
G1 Z0.28                                   ; lift nozzle a bit 
G92 E0 
G1 Y3 F1800                                    ; zero the extruded length 
G1 X60  E25 F500                       ; Extrude 25mm of filament in a 5cm line. 
G92 E0                                     ; zero the extruded length again 
G1 E-2 F500                                ; Retract a little 
G1 X70 F4000                              ; Quickly wipe away from the filament line
M117
G21 ; set units to millimeters
G90 ; use absolute coordinates
M82 ; use absolute distances for extrusion
G92 E0
M107
;LAYER_CHANGE
;Z:0.28
;HEIGHT:0.28
G1 E-2 F6000
G92 E0
G1 Z.28 F12000
G1 X109.252 Y98.466
G1 E2 F6000
G92 E0
M204 S2000
;TYPE:Skirt/Brim
;WIDTH:0.56
G1 F3000
G1 X109.771 Y97.91 E.04426
G1 X110.313 Y97.545 E.08229
G1 X111.119 Y97.275 E.13176
G1 X118.823 Y97.268 E.58009
G1 X119.304 Y97.386 E.60891
G1 X119.849 Y97.632 E.64371
G1 X120.601 Y98.283 E.70159
G1 X120.955 Y98.814 E.73873
G1 X121.154 Y99.318 E.77026
G1 X121.25 Y99.847 E.80155
G1 X121.25 Y130.145 E2.56474
G1 X121.19 Y130.552 E2.58868
G1 X120.748 Y131.534 E2.65135
G1 X120.229 Y132.09 E2.69561
G1 X119.687 Y132.455 E2.73364
G1 X118.881 Y132.724 E2.78309
G1 X111.356 Y132.75 E3.22101
G1 X110.948 Y132.69 E3.24501
G1 X109.966 Y132.248 E3.30768
G1 X109.41 Y131.729 E3.35194
G1 X109.045 Y131.186 E3.39002
G1 X108.846 Y130.682 E3.42155
G1 X108.75 Y130.153 E3.45284
G1 X108.75 Y99.855 E5.21603
G1 X108.81 Y99.448 E5.23997
G1 X109.228 Y98.521 E5.29915
G1 X109.228 Y98.521 F12000
G1 X109.666 Y98.748
G1 F3000
G1 X110.114 Y98.275 E5.33706
G1 X110.527 Y97.997 E5.36603
G1 X111.209 Y97.768 E5.4079
G1 X118.791 Y97.768 E5.84913
G1 X119.618 Y98.077 E5.90051
G1 X119.882 Y98.271 E5.91958
G1 X120.231 Y98.619 E5.94826
G1 X120.668 Y99.437 E6.00223
G1 X120.75 Y99.871 E6.02793
G1 X120.75 Y130.125 E7.78856
G1 X120.7 Y130.449 E7.80764
G1 X120.334 Y131.252 E7.859
G1 X119.886 Y131.725 E7.89691
G1 X119.473 Y132.003 E7.92588
G1 X118.791 Y132.232 E7.96775
G1 X111.051 Y132.2 E8.41818
G1 X110.248 Y131.834 E8.46954
G1 X109.775 Y131.386 E8.50745
G1 X109.498 Y130.974 E8.53634
G1 X109.332 Y130.563 E8.56214
G1 X109.25 Y130.129 E8.58784
G1 X109.25 Y99.875 E10.34847
G1 X109.3 Y99.551 E10.36755
G1 X109.641 Y98.803 E10.41539
G1 X109.641 Y98.803 F12000
G1 X110.077 Y99.034
G1 F3000
G1 X110.455 Y98.641 E10.44712
G1 X110.741 Y98.45 E10.46713
G1 X111.295 Y98.261 E10.50119
G1 X118.705 Y98.261 E10.93241
G1 X118.939 Y98.317 E10.94641
G1 X119.348 Y98.498 E10.97244
G1 X119.86 Y98.956 E11.01242
G1 X120.05 Y99.241 E11.03235
G1 X120.25 Y99.897 E11.07226
G1 X120.212 Y130.342 E12.84401
G1 X119.923 Y130.966 E12.88403
G1 X119.545 Y131.359 E12.91576
G1 X119.259 Y131.55 E12.93577
G1 X118.705 Y131.739 E12.96983
G1 X111.158 Y131.712 E13.40903
G1 X110.534 Y131.423 E13.44905
G1 X110.141 Y131.045 E13.48078
G1 X109.95 Y130.759 E13.50079
G1 X109.75 Y130.103 E13.5407
G1 X109.788 Y99.658 E15.31245
G1 X110.051 Y99.089 E15.34893
G1 X110.051 Y99.089 F12000
G1 X110.483 Y99.326
G1 F3000
G1 X110.793 Y99.011 E15.37465
G1 X111.376 Y98.755 E15.4117
G1 X118.624 Y98.755 E15.8335
G1 X119.084 Y98.923 E15.862
G1 X119.489 Y99.292 E15.89388
G1 X119.75 Y99.922 E15.93356
G1 X119.724 Y130.228 E17.69722
G1 X119.517 Y130.674 E17.72583
G1 X119.207 Y130.989 E17.75155
G1 X118.624 Y131.245 E17.7886
G1 X111.272 Y131.224 E18.21645
G1 X110.826 Y131.017 E18.24506
G1 X110.511 Y130.707 E18.27078
G1 X110.25 Y130.078 E18.31041
G1 X110.276 Y99.772 E20.07407
G1 X110.458 Y99.381 E20.09917
G1 X110.458 Y99.381 F12000
G1 X110.882 Y99.628
G1 F3000
G1 X111.128 Y99.382 E20.11942
G1 X111.446 Y99.25 E20.13946
G1 X118.602 Y99.26 E20.5559
G1 X118.872 Y99.382 E20.57314
G1 X119.118 Y99.628 E20.59339
G1 X119.25 Y99.946 E20.61343
G1 X119.24 Y130.102 E22.36836
G1 X119.118 Y130.372 E22.3856
G1 X118.872 Y130.618 E22.40585
G1 X118.554 Y130.75 E22.42589
G1 X111.398 Y130.74 E22.84233
G1 X111.128 Y130.618 E22.85957
G1 X110.882 Y130.372 E22.87982
G1 X110.75 Y130.054 E22.89986
G1 X110.76 Y99.898 E24.65479
G1 X110.857 Y99.682 E24.66857
G1 X110.857 Y99.682 F12000
G1 X111.25 Y100.021
G1 F3000
G1 X111.521 Y99.75 E24.69087
G1 X118.479 Y99.75 E25.09579
G1 X118.75 Y100.021 E25.11809
G1 X118.75 Y129.979 E26.86149
G1 X118.479 Y130.25 E26.88379
G1 X111.521 Y130.25 E27.28871
G1 X111.25 Y129.979 E27.31101
G1 X111.25 Y100.081 E29.05092
G1 E27.65092 F6000
;WIPE_START
G1 F9600
G1 X111.25 Y100.021 E27.61529
G1 X111.521 Y99.75 E27.38773
G1 X112.088 Y99.75 E27.05092
;WIPE_END
G92 E0
G92 E0
G1 X118.1 Y129.6 F12000
G1 E2 F6000
;TYPE:External perimeter
G1 F3000
G1 X111.9 Y129.6 E2.36081
G1 X111.9 Y100.4 E4.0601
G1 X118.1 Y100.4 E4.42091
G1 X118.1 Y129.54 E6.11671
G1 X117.6 Y129.1 F12000
;TYPE:Perimeter
G1 F3000
G1 X112.4 Y129.1 E6.41932
G1 X112.4 Y100.9 E8.06042
G1 X117.6 Y100.9 E8.36303
G1 X117.6 Y129.04 E10.00064
G1 X117.1 Y128.6 F12000
G1 F3000
G1 X112.9 Y128.6 E10.24506
G1 X112.9 Y101.4 E11.82796
G1 X117.1 Y101.4 E12.07238
G1 X117.1 Y128.54 E13.65179
G1 X117.1 Y128.54 F12000
G1 X116.65 Y128.4
;TYPE:Solid infill
;WIDTH:0.610148
G1 F3000
G1 X116.65 Y101.825 E15.35346
G1 X116.1 Y101.825 E15.38868
G1 X116.1 Y128.175 E17.07594
G1 X115.55 Y128.175 E17.11116
G1 X115.55 Y101.825 E18.79842
G1 X115 Y101.825 E18.83364
G1 X115 Y128.175 E20.5209
G1 X114.45 Y128.175 E20.55612
G1 X114.45 Y101.825 E22.24338
G1 X113.9 Y101.825 E22.2786
G1 X113.9 Y128.175 E23.96586
G1 X113.35 Y128.175 E24.00108
G1 X113.35 Y101.6 E25.70275
;LAYER_CHANGE
;Z:0.48
;HEIGHT:0.2
; BEFORE_LAYER_CHANGE 1 @ 0.48mm
G1 E24.30275 F6000
;WIPE_START
G1 F9600
G1 X113.35 Y102.611 E23.70275
;WIPE_END
G92 E0
G1 Z.48 F12000
; AFTER_LAYER_CHANGE 1 @ 0.48mm
M104 S180 ; set temperature
G1 X111.745 Y129.755
G1 E2 F6000
G92 E0
;TYPE:External perimeter
;WIDTH:0.45
G1 F4800
G1 X111.745 Y100.245 E.99888
G1 X118.255 Y100.245 E1.21924
G1 X118.255 Y129.755 E2.21812
G1 X111.805 Y129.755 E2.43644
G1 X112.127 Y129.373 F12000
;TYPE:Perimeter
;WIDTH:0.4
G1 F5519
G1 X112.127 Y100.627 E3.28995
G1 X117.873 Y100.627 E3.46056
G1 X117.873 Y129.373 E4.31407
G1 X112.187 Y129.373 E4.48289
G1 X112.484 Y129.016 F12000
G1 F5519
G1 X112.484 Y100.984 E5.3152
G1 X117.516 Y100.984 E5.46461
G1 X117.516 Y129.016 E6.29692
G1 X112.544 Y129.016 E6.44455
G1 E5.04455 F6000
;WIPE_START
G1 F9600
G1 X112.484 Y129.016 E5.00893
G1 X112.484 Y128.065 E4.44455
;WIPE_END
G92 E0
G1 X117.284 Y101.216 F12000
G1 E2 F6000
;TYPE:Solid infill
;WIDTH:0.38292
G1 F5519
G1 X112.716 Y101.216 E2.12914
;WIDTH:0.421947
G1 X112.754 Y101.33 E2.13293
;WIDTH:0.460973
G1 X112.792 Y101.444 E2.13711
;WIDTH:0.499999
G1 X112.83 Y101.559 E2.14171
G1 X117.17 Y101.559 E2.30666
G1 X117.17 Y102.016 E2.32403
G1 X112.83 Y102.016 E2.48898
G1 X112.83 Y102.473 E2.50635
G1 X117.17 Y102.473 E2.6713
G1 X117.17 Y102.93 E2.68867
G1 X112.83 Y102.93 E2.85362
G1 X112.83 Y103.387 E2.87099
G1 X117.17 Y103.387 E3.03594
G1 X117.17 Y103.844 E3.05331
G1 X112.83 Y103.844 E3.21826
G1 X112.83 Y104.301 E3.23563
G1 X117.17 Y104.301 E3.40058
G1 X117.17 Y104.758 E3.41795
G1 X112.83 Y104.758 E3.5829
G1 X112.83 Y105.215 E3.60027
G1 X117.17 Y105.215 E3.76522
G1 X117.17 Y105.672 E3.78259
G1 X112.83 Y105.672 E3.94754
G1 X112.83 Y106.13 E3.96495
G1 X117.17 Y106.13 E4.1299
G1 X117.17 Y106.587 E4.14727
G1 X112.83 Y106.587 E4.31222
G1 X112.83 Y107.044 E4.32959
G1 X117.17 Y107.044 E4.49454
G1 X117.17 Y107.501 E4.51191
G1 X112.83 Y107.501 E4.67686
G1 X112.83 Y107.958 E4.69423
G1 X117.17 Y107.958 E4.85918
G1 X117.17 Y108.415 E4.87655
G1 X112.83 Y108.415 E5.0415
G1 X112.83 Y108.872 E5.05887
G1 X117.17 Y108.872 E5.22382
G1 X117.17 Y109.329 E5.24119
G1 X112.83 Y109.329 E5.40614
G1 X112.83 Y109.786 E5.42351
G1 X117.17 Y109.786 E5.58846
G1 X117.17 Y110.243 E5.60583
G1 X112.83 Y110.243 E5.77078
G1 X112.83 Y110.7 E5.78815
G1 X117.17 Y110.7 E5.9531
G1 X117.17 Y111.157 E5.97047
G1 X112.83 Y111.157 E6.13542
G1 X112.83 Y111.614 E6.15279
G1 X117.17 Y111.614 E6.31774
G1 X117.17 Y112.072 E6.33515
G1 X112.83 Y112.072 E6.5001
G1 X112.83 Y112.529 E6.51747
G1 X117.17 Y112.529 E6.68242
G1 X117.17 Y112.986 E6.69979
G1 X112.83 Y112.986 E6.86474
G1 X112.83 Y113.443 E6.88211
G1 X117.17 Y113.443 E7.04706
G1 X117.17 Y113.9 E7.06443
G1 X112.83 Y113.9 E7.22938
G1 X112.83 Y114.357 E7.24675
G1 X117.17 Y114.357 E7.4117
G1 X117.17 Y114.814 E7.42907
G1 X112.83 Y114.814 E7.59402
G1 X112.83 Y115.271 E7.61139
G1 X117.17 Y115.271 E7.77634
G1 X117.17 Y115.728 E7.79371
G1 X112.83 Y115.728 E7.95866
G1 X112.83 Y116.185 E7.97603
G1 X117.17 Y116.185 E8.14098
G1 X117.17 Y116.642 E8.15835
G1 X112.83 Y116.642 E8.3233
G1 X112.83 Y117.099 E8.34067
G1 X117.17 Y117.099 E8.50562
G1 X117.17 Y117.556 E8.52299
G1 X112.83 Y117.556 E8.68794
G1 X112.83 Y118.014 E8.70535
G1 X117.17 Y118.014 E8.8703
G1 X117.17 Y118.471 E8.88767
G1 X112.83 Y118.471 E9.05262
G1 X112.83 Y118.928 E9.06999
G1 X117.17 Y118.928 E9.23494
G1 X117.17 Y119.385 E9.25231
G1 X112.83 Y119.385 E9.41726
G1 X112.83 Y119.842 E9.43463
G1 X117.17 Y119.842 E9.59958
G1 X117.17 Y120.299 E9.61695
G1 X112.83 Y120.299 E9.7819
G1 X112.83 Y120.756 E9.79927
G1 X117.17 Y120.756 E9.96422
G1 X117.17 Y121.213 E9.98159
G1 X112.83 Y121.213 E10.14654
G1 X112.83 Y121.67 E10.16391
G1 X117.17 Y121.67 E10.32886
G1 X117.17 Y122.127 E10.34623
G1 X112.83 Y122.127 E10.51118
G1 X112.83 Y122.584 E10.52855
G1 X117.17 Y122.584 E10.6935
G1 X117.17 Y123.041 E10.71087
G1 X112.83 Y123.041 E10.87582
G1 X112.83 Y123.499 E10.89323
G1 X117.17 Y123.499 E11.05818
G1 X117.17 Y123.956 E11.07555
G1 X112.83 Y123.956 E11.2405
G1 X112.83 Y124.413 E11.25787
G1 X117.17 Y124.413 E11.42282
G1 X117.17 Y124.87 E11.44019
G1 X112.83 Y124.87 E11.60514
G1 X112.83 Y125.327 E11.62251
G1 X117.17 Y125.327 E11.78746
G1 X117.17 Y125.784 E11.80483
G1 X112.83 Y125.784 E11.96978
G1 X112.83 Y126.241 E11.98715
G1 X117.17 Y126.241 E12.1521
G1 X117.17 Y126.698 E12.16947
G1 X112.83 Y126.698 E12.33442
G1 X112.83 Y127.155 E12.35179
G1 X117.17 Y127.155 E12.51674
G1 X117.17 Y127.612 E12.53411
G1 X112.83 Y127.612 E12.69906
G1 X112.83 Y128.069 E12.71643
G1 X117.17 Y128.069 E12.88138
G1 E11.48138 F6000
;WIPE_START
G1 F9600
G1 X116.16 Y128.069 E10.88138
;WIPE_END
G92 E0
G1 X112.83 Y128.526 F12000
G1 E2 F6000
G1 F5519
G1 X117.17 Y128.526 E2.16495
G1 X117.191 Y128.619 E2.16857
;WIDTH:0.45745
G1 X117.212 Y128.712 E2.17186
;WIDTH:0.4149
G1 X112.788 Y128.712 E2.3087
M106 S255
;LAYER_CHANGE
;Z:0.68
;HEIGHT:0.2
; BEFORE_LAYER_CHANGE 2 @ 0.68mm
G1 E.9087 F6000
;WIPE_START
G1 F9600
G1 X113.799 Y128.712 E.3087
;WIPE_END
G92 E0
G1 Z.68 F12000
; AFTER_LAYER_CHANGE 2 @ 0.68mm
G1 X111.745 Y129.755
G1 E2 F6000
G92 E0
;TYPE:External perimeter
;WIDTH:0.45
G1 F4800
G1 X111.745 Y100.245 E.99888
G1 X118.255 Y100.245 E1.21924
G1 X118.255 Y129.755 E2.21812
G1 X111.805 Y129.755 E2.43644
G1 X112.127 Y129.373 F12000
;TYPE:Perimeter
;WIDTH:0.4
G1 F5421
G1 X112.127 Y100.627 E3.28995
G1 X117.873 Y100.627 E3.46056
G1 X117.873 Y129.373 E4.31407
G1 X112.187 Y129.373 E4.48289
G1 X112.484 Y129.016 F12000
G1 F5421
G1 X112.484 Y100.984 E5.3152
G1 X117.516 Y100.984 E5.46461
G1 X117.516 Y129.016 E6.29692
G1 X112.544 Y129.016 E6.44455
G1 X112.544 Y129.016 F12000
G1 X113.059 Y128.67
;TYPE:Solid infill
;WIDTH:0.499999
G1 F5421
G1 X113.059 Y101.33 E7.48364
G1 X112.944 Y101.292 E7.48824
;WIDTH:0.460973
G1 X112.83 Y101.254 E7.49242
;WIDTH:0.421947
G1 X112.716 Y101.216 E7.49621
;WIDTH:0.38292
G1 X112.716 Y128.784 E8.27559
;WIDTH:0.499999
G1 X113.516 Y128.67 E8.3063
G1 X113.516 Y101.33 E9.34539
G1 X113.973 Y101.33 E9.36276
G1 X113.973 Y128.67 E10.40185
G1 X114.43 Y128.67 E10.41922
G1 X114.43 Y101.33 E11.45831
G1 X114.887 Y101.33 E11.47568
G1 X114.887 Y128.67 E12.51477
G1 X115.344 Y128.67 E12.53214
G1 X115.344 Y101.33 E13.57123
G1 X115.801 Y101.33 E13.5886
G1 X115.801 Y128.67 E14.62769
G1 X116.258 Y128.67 E14.64506
G1 X116.258 Y101.33 E15.68415
G1 E14.28415 F6000
;WIPE_START
G1 F9600
G1 X116.258 Y102.341 E13.68415
;WIPE_END
G92 E0
G1 X116.715 Y128.67 F12000
G1 E2 F6000
G1 F5421
G1 X116.715 Y101.33 E3.03909
G1 X117.171 Y101.329 E3.05642
;WIDTH:0.49739
G1 X117.171 Y128.671 E4.08966
;LAYER_CHANGE
;Z:0.88
;HEIGHT:0.2
; BEFORE_LAYER_CHANGE 3 @ 0.88mm
G1 E2.68966 F6000
;WIPE_START
G1 F9600
G1 X117.171 Y127.66 E2.08966
;WIPE_END
G92 E0
G1 Z.88 F12000
; AFTER_LAYER_CHANGE 3 @ 0.88mm
G1 X111.745 Y129.755
G1 E2 F6000
G92 E0
;TYPE:External perimeter
;WIDTH:0.45
G1 F4800
G1 X111.745 Y100.245 E.99888
G1 X118.255 Y100.245 E1.21924
G1 X118.255 Y129.755 E2.21812
G1 X111.805 Y129.755 E2.43644
G1 X112.127 Y129.373 F12000
;TYPE:Perimeter
;WIDTH:0.4
G1 F5579
G1 X112.127 Y100.627 E3.28995
G1 X117.873 Y100.627 E3.46056
G1 X117.873 Y129.373 E4.31407
G1 X112.187 Y129.373 E4.48289
G1 X112.484 Y129.016 F12000
G1 F5579
G1 X112.484 Y100.984 E5.3152
G1 X117.516 Y100.984 E5.46461
G1 X117.516 Y129.016 E6.29692
G1 X112.544 Y129.016 E6.44455
G1 E5.04455 F6000
;WIPE_START
G1 F9600
G1 X112.484 Y129.016 E5.00893
G1 X112.484 Y128.065 E4.44455
;WIPE_END
G92 E0
G1 X117.284 Y101.216 F12000
G1 E2 F6000
;TYPE:Solid infill
;WIDTH:0.38292
G1 F5579
G1 X112.716 Y101.216 E2.12914
;WIDTH:0.421947
G1 X112.754 Y101.33 E2.13293
;WIDTH:0.460973
G1 X112.792 Y101.444 E2.13711
;WIDTH:0.499999
G1 X112.83 Y101.559 E2.14171
G1 X117.17 Y101.559 E2.30666
G1 X117.17 Y102.016 E2.32403
G1 X115.258 Y102.016 E2.3967
G1 X115.185 Y101.956 E2.40029
;WIDTH:0.460973
G1 X115.111 Y101.897 E2.40358
;WIDTH:0.421947
G1 X115.038 Y101.837 E2.40656
;WIDTH:0.38292
G1 X115.001 Y101.773 E2.40865
G1 X114.964 Y101.837 E2.41074
G1 X115.001 Y101.858 E2.41194
G1 X115.038 Y102.096 E2.41875
G1 X114.964 Y102.096 E2.42084
G1 X115.001 Y102.16 E2.42293
;WIDTH:0.499999
G1 X114.744 Y102.016 E2.43413
G1 X112.83 Y102.016 E2.50687
G1 X112.83 Y102.473 E2.52424
G1 X114.131 Y102.473 E2.57369
G1 X113.985 Y102.93 E2.59192
G1 X112.83 Y102.93 E2.63582
G1 X112.83 Y103.387 E2.65319
G1 X114.057 Y103.387 E2.69982
G1 X114.436 Y103.844 E2.72238
G1 X112.83 Y103.844 E2.78342
G1 E1.38342 F6000
;WIPE_START
G1 F9600
G1 X113.84 Y103.844 E.78342
;WIPE_END
G92 E0
G1 X115.872 Y102.473 F12000
G1 E2 F6000
G1 F5579
G1 X117.17 Y102.473 E2.04933
G1 X117.17 Y102.93 E2.0667
G1 X116.014 Y102.93 E2.11064
G1 X115.939 Y103.387 E2.12824
G1 X117.17 Y103.387 E2.17503
G1 X117.17 Y103.844 E2.1924
G1 X115.572 Y103.844 E2.25313
G1 X115.443 Y103.868 E2.25812
;WIDTH:0.460973
G1 X115.315 Y103.891 E2.26264
;WIDTH:0.421947
G1 X115.186 Y103.915 E2.26678
;WIDTH:0.38292
G1 X114.814 Y103.923 E2.2773
G1 E.8773 F6000
;WIPE_START
G1 F9600
G1 X115.186 Y103.915 E.65637
G1 X115.315 Y103.891 E.57846
G1 X115.443 Y103.868 E.50124
G1 X115.572 Y103.844 E.42333
G1 X115.818 Y103.844 E.2773
;WIPE_END
G92 E0
G1 X112.83 Y104.301 F12000
G1 E2 F6000
;WIDTH:0.499999
G1 F5579
G1 X117.17 Y104.301 E2.16495
G1 X117.17 Y104.758 E2.18232
G1 X112.83 Y104.758 E2.34727
G1 X112.83 Y105.215 E2.36464
G1 X117.17 Y105.215 E2.52959
G1 X117.17 Y105.672 E2.54696
G1 X112.83 Y105.672 E2.71191
G1 X112.83 Y106.13 E2.72932
G1 X117.17 Y106.13 E2.89427
G1 X117.17 Y106.587 E2.91164
G1 X112.83 Y106.587 E3.07659
G1 X112.83 Y107.044 E3.09396
G1 X117.17 Y107.044 E3.25891
G1 X117.17 Y107.501 E3.27628
G1 X112.83 Y107.501 E3.44123
G1 X112.83 Y107.958 E3.4586
G1 X117.17 Y107.958 E3.62355
G1 X117.17 Y108.415 E3.64092
G1 X112.83 Y108.415 E3.80587
G1 X112.83 Y108.872 E3.82324
G1 X117.17 Y108.872 E3.98819
