; generated by PrusaSlicer 2.7.4+win64 on 2024-06-14 at 06:18:00 UTC

; 

; external perimeters extrusion width = 0.48mm
; perimeters extrusion width = 0.48mm
; infill extrusion width = 0.48mm
; solid infill extrusion width = 0.48mm
; top infill extrusion width = 0.48mm
; first layer extrusion width = 0.48mm

M201 X2000 Y2000 Z800 E2000 ; sets maximum accelerations, mm/sec^2
M203 X300 Y250 Z8 E100 ; sets maximum feedrates, mm / sec
M204 S2000 T2000 ; sets acceleration (S) and retract acceleration (R), mm/sec^2
M205 X15.00 Y10.00 Z2.00 E10.00 ; sets the jerk limits, mm/sec
M205 S0 T0 ; sets the minimum extruding and travel feed rate, mm/sec
;TYPE:Custom
G90 ; use absolute coordinates
M83 ; extruder relative mode
M104 S200 ; set extruder temp
M140 S60 ; set bed temp
M190 S60 ; wait for bed temp
M109 S200 ; wait for extruder temp
G28                                        ; move X/Y/Z to min endstops
G1 Z0.28                                   ; lift nozzle a bit 
G92 E0 
G1 Y3 F1800                                    ; zero the extruded length 
G1 X60  E25 F500                       ; Extrude 25mm of filament in a 5cm line. 
G92 E0                                     ; zero the extruded length again 
G1 E-2 F500                                ; Retract a little 
G1 X70 F4000                              ; Quickly wipe away from the filament line
M117
G21 ; set units to millimeters
G90 ; use absolute coordinates
M82 ; use absolute distances for extrusion
G92 E0
M107
;LAYER_CHANGE
;Z:0.28
;HEIGHT:0.28
G1 E-2 F6000
G92 E0
G1 Z.28 F12000
G1 X109.263 Y98.489
G1 E2 F6000
G92 E0
M204 S2000
;TYPE:Skirt/Brim
;WIDTH:0.48
G1 F3000
G1 X109.77 Y97.94 E.03653
G1 X110.334 Y97.558 E.06983
G1 X111.114 Y97.298 E.11002
G1 X118.834 Y97.292 E.48739
G1 X119.319 Y97.413 E.51182
G1 X119.815 Y97.638 E.53844
G1 X120.577 Y98.287 E.58737
G1 X120.945 Y98.84 E.61984
G1 X121.138 Y99.342 E.64613
G1 X121.229 Y99.863 E.67198
G1 X121.229 Y130.126 E2.1513
G1 X121.172 Y130.536 E2.17153
G1 X120.737 Y131.511 E2.22372
G1 X120.23 Y132.06 E2.26025
G1 X119.666 Y132.442 E2.29355
G1 X118.886 Y132.702 E2.33374
G1 X111.375 Y132.729 E2.7009
G1 X110.964 Y132.672 E2.72118
G1 X109.989 Y132.237 E2.77337
G1 X109.44 Y131.73 E2.8099
G1 X109.055 Y131.16 E2.84352
G1 X108.862 Y130.658 E2.86981
G1 X108.771 Y130.137 E2.89566
G1 X108.771 Y99.874 E4.37498
G1 X108.828 Y99.464 E4.39521
G1 X109.238 Y98.544 E4.44445
G1 X109.238 Y98.544 F12000
G1 X109.612 Y98.723
G1 F3000
G1 X110.059 Y98.244 E4.47648
G1 X110.514 Y97.938 E4.50328
G1 X111.191 Y97.711 E4.53818
G1 X118.76 Y97.705 E4.90817
G1 X119.622 Y98.011 E4.95288
G1 X120.265 Y98.569 E4.9945
G1 X120.563 Y99.015 E5.02072
G1 X120.81 Y99.883 E5.06483
G1 X120.81 Y130.111 E6.54244
G1 X120.76 Y130.452 E6.55929
G1 X120.388 Y131.277 E6.60353
G1 X119.941 Y131.756 E6.63556
G1 X119.486 Y132.062 E6.66236
G1 X118.809 Y132.288 E6.69725
G1 X111.39 Y132.31 E7.05991
G1 X111.048 Y132.26 E7.07681
G1 X110.223 Y131.888 E7.12105
G1 X109.744 Y131.441 E7.15308
G1 X109.437 Y130.985 E7.17995
G1 X109.19 Y130.117 E7.22406
G1 X109.19 Y99.889 E8.70167
G1 X109.24 Y99.548 E8.71852
G1 X109.587 Y98.778 E8.7598
G1 X109.587 Y98.778 F12000
G1 X109.96 Y98.96
G1 F3000
G1 X110.347 Y98.551 E8.78732
G1 X110.694 Y98.318 E8.80775
G1 X111.267 Y98.125 E8.83731
G1 X118.734 Y98.125 E9.20231
G1 X119.428 Y98.384 E9.23852
G1 X119.954 Y98.852 E9.27294
G1 X120.182 Y99.193 E9.29299
G1 X120.39 Y99.903 E9.32915
G1 X120.348 Y130.366 E10.81825
G1 X120.04 Y131.04 E10.85447
G1 X119.653 Y131.449 E10.88199
G1 X119.306 Y131.682 E10.90242
G1 X118.733 Y131.875 E10.93198
G1 X111.134 Y131.848 E11.30344
G1 X110.46 Y131.54 E11.33966
G1 X110.051 Y131.153 E11.36718
G1 X109.818 Y130.807 E11.38757
G1 X109.61 Y130.097 E11.42373
G1 X109.652 Y99.634 E12.91283
G1 X109.935 Y99.014 E12.94614
G1 X109.935 Y99.014 F12000
G1 X110.304 Y99.2
G1 F3000
G1 X110.633 Y98.859 E12.9693
G1 X111.339 Y98.539 E13.00719
G1 X118.661 Y98.539 E13.3651
G1 X119.201 Y98.738 E13.39323
G1 X119.642 Y99.134 E13.4222
G1 X119.802 Y99.373 E13.43626
G1 X119.97 Y99.925 E13.46446
G1 X119.938 Y130.276 E14.94808
G1 X119.696 Y130.8 E14.97629
G1 X119.367 Y131.141 E14.99945
G1 X118.661 Y131.461 E15.03734
G1 X111.224 Y131.438 E15.40088
G1 X110.7 Y131.196 E15.42909
G1 X110.359 Y130.867 E15.45225
G1 X110.198 Y130.626 E15.46642
G1 X110.03 Y130.075 E15.49458
G1 X110.062 Y99.724 E16.9782
G1 X110.279 Y99.255 E17.00346
G1 X110.279 Y99.255 F12000
G1 X110.646 Y99.445
G1 F3000
G1 X110.917 Y99.169 E17.02237
G1 X111.407 Y98.954 E17.04853
G1 X118.712 Y98.981 E17.40562
G1 X118.98 Y99.096 E17.41988
G1 X119.331 Y99.416 E17.4431
G1 X119.55 Y99.945 E17.47109
G1 X119.528 Y130.18 E18.94904
G1 X119.354 Y130.555 E18.96925
G1 X119.083 Y130.831 E18.98816
G1 X118.593 Y131.046 E19.01432
G1 X111.32 Y131.028 E19.36984
G1 X110.945 Y130.854 E19.39005
G1 X110.669 Y130.583 E19.40896
G1 X110.45 Y130.055 E19.4369
G1 X110.472 Y99.82 E20.91485
G1 X110.62 Y99.5 E20.93208
G1 X110.62 Y99.5 F12000
G1 X110.981 Y99.699
G1 F3000
G1 X111.199 Y99.481 E20.94715
G1 X111.466 Y99.37 E20.96128
G1 X118.534 Y99.37 E21.30678
G1 X118.801 Y99.481 E21.32091
G1 X119.019 Y99.699 E21.33598
G1 X119.13 Y99.966 E21.35011
G1 X119.122 Y130.074 E22.82185
G1 X119.019 Y130.301 E22.83404
G1 X118.801 Y130.519 E22.84911
G1 X118.534 Y130.63 E22.86324
G1 X111.426 Y130.622 E23.21069
G1 X111.199 Y130.519 E23.22288
G1 X110.981 Y130.301 E23.23795
G1 X110.87 Y130.034 E23.25208
G1 X110.878 Y99.926 E24.72382
G1 X110.956 Y99.753 E24.7331
G1 X110.956 Y99.753 F12000
G1 X111.29 Y100.029
G1 F3000
G1 X111.529 Y99.79 E24.74962
G1 X118.549 Y99.822 E25.09278
G1 X118.71 Y100.029 E25.1056
G1 X118.71 Y129.971 E26.56923
G1 X118.471 Y130.21 E26.58575
G1 X111.529 Y130.21 E26.92509
G1 X111.29 Y129.971 E26.94161
G1 X111.29 Y100.089 E28.4023
G1 E27.0023 F6000
;WIPE_START
G1 F9600
G1 X111.29 Y100.029 E26.96667
G1 X111.529 Y99.79 E26.76598
G1 X112.141 Y99.793 E26.4023
;WIPE_END
G92 E0
G92 E0
G1 X118.14 Y129.64 F12000
G1 E2 F6000
;TYPE:External perimeter
G1 F3000
G1 X111.86 Y129.64 E2.30698
G1 X111.86 Y100.36 E3.73825
G1 X118.14 Y100.36 E4.04523
G1 X118.14 Y129.58 E5.47356
G1 X117.72 Y129.22 F12000
;TYPE:Perimeter
G1 F3000
G1 X112.28 Y129.22 E5.73948
G1 X112.28 Y100.78 E7.12969
G1 X117.72 Y100.78 E7.39561
G1 X117.72 Y129.16 E8.78288
G1 X117.3 Y128.8 F12000
G1 F3000
G1 X112.7 Y128.8 E9.00774
G1 X112.7 Y101.2 E10.35689
G1 X117.3 Y101.2 E10.58175
G1 X117.3 Y128.74 E11.92796
G1 X117.3 Y128.74 F12000
G1 X116.938 Y128.632
;TYPE:Solid infill
;WIDTH:0.490731
G1 F3000
G1 X116.938 Y101.557 E13.28526
G1 X116.507 Y101.557 E13.30687
G1 X116.507 Y128.443 E14.6547
G1 X116.077 Y128.443 E14.67626
G1 X116.077 Y101.557 E16.02409
G1 X115.646 Y101.557 E16.0457
G1 X115.646 Y128.443 E17.39353
G1 X115.215 Y128.443 E17.41514
G1 X115.215 Y101.557 E18.76297
G1 X114.785 Y101.557 E18.78453
G1 X114.785 Y128.443 E20.13236
G1 X114.354 Y128.443 E20.15397
G1 X114.354 Y101.557 E21.5018
G1 X113.923 Y101.557 E21.52341
G1 X113.923 Y128.443 E22.87124
G1 X113.493 Y128.443 E22.8928
G1 X113.493 Y101.557 E24.24063
G1 X113.062 Y101.557 E24.26224
G1 X113.062 Y128.632 E25.61954
;LAYER_CHANGE
;Z:0.48
;HEIGHT:0.2
; BEFORE_LAYER_CHANGE 1 @ 0.48mm
G1 E24.21954 F6000
;WIPE_START
G1 F9600
G1 X113.062 Y127.621 E23.61954
;WIPE_END
G92 E0
G1 Z.48 F12000
; AFTER_LAYER_CHANGE 1 @ 0.48mm
M104 S180 ; set temperature
G1 X111.76 Y100.26
G1 E2 F6000
G92 E0
;TYPE:External perimeter
;WIDTH:0.48
G1 F4800
G1 X118.24 Y100.26 E.2355
G1 X118.24 Y129.74 E1.3069
G1 X111.76 Y129.74 E1.5424
G1 X111.76 Y100.32 E2.61162
G1 X112.197 Y100.697 F12000
;TYPE:Perimeter
G1 F5040
G1 X117.803 Y100.697 E2.81536
G1 X117.803 Y129.303 E3.855
G1 X112.197 Y129.303 E4.05874
G1 X112.197 Y100.757 E5.0962
G1 X112.634 Y101.134 F12000
G1 F5040
G1 X117.366 Y101.134 E5.26818
G1 X117.366 Y128.866 E6.27605
G1 X112.634 Y128.866 E6.44803
G1 X112.634 Y101.194 E7.45372
G1 E6.05372 F6000
;WIPE_START
G1 F9600
G1 X112.634 Y101.134 E6.01809
G1 X113.584 Y101.134 E5.45372
;WIPE_END
G92 E0
G1 X116.994 Y101.506 F12000
G1 E2 F6000
;TYPE:Solid infill
;WIDTH:0.479999
G1 F5040
G1 X113.006 Y101.506 E2.14494
G1 X113.006 Y128.494 E3.12577
G1 X116.994 Y128.494 E3.27071
G1 X116.994 Y101.724 E4.24362
G1 X116.557 Y101.943 E4.26138
G1 X113.443 Y101.943 E4.37455
G1 X113.443 Y128.057 E5.32362
G1 X116.557 Y128.057 E5.43679
G1 X116.557 Y102.161 E6.37794
G1 X116.12 Y102.38 E6.3957
G1 X113.88 Y102.38 E6.47711
G1 X113.88 Y127.62 E7.39441
G1 X116.12 Y127.62 E7.47582
G1 X116.12 Y102.598 E8.3852
G1 X115.683 Y102.817 E8.40296
G1 X114.317 Y102.817 E8.4526
G1 X114.317 Y127.183 E9.33814
G1 X115.683 Y127.183 E9.38778
G1 X115.683 Y103.035 E10.2654
G1 X115.232 Y103.268 E10.28385
;WIDTH:0.507469
G1 X114.768 Y103.268 E10.30177
G1 X114.768 Y126.732 E11.20812
G1 X115.232 Y126.732 E11.22604
G1 X115.232 Y103.486 E12.12397
M106 S255
;LAYER_CHANGE
;Z:0.68
;HEIGHT:0.2
; BEFORE_LAYER_CHANGE 2 @ 0.68mm
G1 E10.72397 F6000
;WIPE_START
G1 F9600
G1 X115.232 Y104.497 E10.12397
;WIPE_END
G92 E0
G1 Z.68 F12000
; AFTER_LAYER_CHANGE 2 @ 0.68mm
G1 X111.76 Y129.74
G1 E2 F6000
G92 E0
;TYPE:External perimeter
;WIDTH:0.48
G1 F4800
G1 X111.76 Y100.26 E1.0714
G1 X118.24 Y100.26 E1.3069
G1 X118.24 Y129.74 E2.3783
G1 X111.82 Y129.74 E2.61162
G1 X112.197 Y129.303 F12000
;TYPE:Perimeter
G1 F5478
G1 X112.197 Y100.697 E3.65126
G1 X117.803 Y100.697 E3.855
G1 X117.803 Y129.303 E4.89464
G1 X112.257 Y129.303 E5.0962
G1 X112.634 Y128.866 F12000
G1 F5478
G1 X112.634 Y101.134 E6.10407
G1 X117.366 Y101.134 E6.27605
G1 X117.366 Y128.866 E7.28392
G1 X112.694 Y128.866 E7.45372
G1 X112.694 Y128.866 F12000
G1 X113.224 Y128.494
;TYPE:Solid infill
;WIDTH:0.479999
G1 F5478
G1 X113.224 Y101.506 E8.43455
G1 X113.06 Y101.451 E8.44084
;WIDTH:0.43146
G1 X112.896 Y101.396 E8.44643
;WIDTH:0.38292
G1 X112.896 Y128.604 E9.21563
;WIDTH:0.479999
G1 X113.661 Y128.494 E9.24372
G1 X113.661 Y101.506 E10.22455
G1 X114.098 Y101.506 E10.24043
G1 X114.098 Y128.494 E11.22126
G1 X114.535 Y128.494 E11.23714
G1 X114.535 Y101.506 E12.21797
G1 X114.973 Y101.506 E12.23389
G1 X114.973 Y128.494 E13.21472
G1 X115.41 Y128.494 E13.2306
G1 X115.41 Y101.506 E14.21143
G1 X115.847 Y101.506 E14.22731
G1 X115.847 Y128.494 E15.20814
G1 X116.284 Y128.494 E15.22402
G1 X116.284 Y101.506 E16.20485
G1 E14.80485 F6000
;WIPE_START
G1 F9600
G1 X116.284 Y102.517 E14.20485
;WIPE_END
G92 E0
G1 X116.721 Y128.494 F12000
G1 E2 F6000
G1 F5478
G1 X116.721 Y101.506 E2.98083
G1 X116.898 Y101.465 E2.98743
;WIDTH:0.43146
G1 X117.076 Y101.424 E2.99333
;WIDTH:0.38292
G1 X117.076 Y128.576 E3.76095
;LAYER_CHANGE
;Z:0.88
;HEIGHT:0.2
; BEFORE_LAYER_CHANGE 3 @ 0.88mm
G1 E2.36095 F6000
;WIPE_START
G1 F9600
G1 X117.076 Y127.565 E1.76095
;WIPE_END
G92 E0
G1 Z.88 F12000
; AFTER_LAYER_CHANGE 3 @ 0.88mm
G1 X111.76 Y129.74
G1 E2 F6000
G92 E0
;TYPE:External perimeter
;WIDTH:0.48
G1 F4800
G1 X111.76 Y100.26 E1.0714
G1 X118.24 Y100.26 E1.3069
G1 X118.24 Y129.74 E2.3783
G1 X111.82 Y129.74 E2.61162
G1 X112.197 Y129.303 F12000
;TYPE:Perimeter
G1 F5189
G1 X112.197 Y100.697 E3.65126
G1 X117.803 Y100.697 E3.855
G1 X117.803 Y129.303 E4.89464
G1 X112.257 Y129.303 E5.0962
G1 X112.634 Y128.866 F12000
G1 F5189
G1 X112.634 Y101.134 E6.10407
G1 X117.366 Y101.134 E6.27605
G1 X117.366 Y128.866 E7.28392
G1 X112.694 Y128.866 E7.45372
G1 E6.05372 F6000
;WIPE_START
G1 F9600
G1 X112.634 Y128.866 E6.01809
G1 X112.634 Y127.915 E5.45372
;WIPE_END
G92 E0
G1 X116.994 Y101.506 F12000
G1 E2 F6000
;TYPE:Solid infill
;WIDTH:0.479999
G1 F5189
G1 X115.871 Y101.506 E2.04081
;WIDTH:0.523995
G1 X115.66 Y101.528 E2.0493
;WIDTH:0.567991
G1 X115.45 Y101.55 E2.05852
;WIDTH:0.611986
G1 X115.239 Y101.572 E2.06856
;WIDTH:0.625557
G1 X114.655 Y101.578 E2.09685
G1 X114.45 Y101.554 E2.10685
;WIDTH:0.577038
G1 X114.245 Y101.53 E2.11602
;WIDTH:0.528519
G1 X114.039 Y101.506 E2.12439
;WIDTH:0.479999
G1 X113.006 Y101.506 E2.16193
G1 X113.006 Y128.494 E3.14276
G1 X114.311 Y128.494 E3.19019
;WIDTH:0.520499
G1 X114.499 Y128.474 E3.1977
;WIDTH:0.560998
G1 X114.687 Y128.454 E3.20584
;WIDTH:0.601497
G1 X114.875 Y128.434 E3.21462
;WIDTH:0.608405
G1 X115.202 Y128.43 E3.23
G1 X115.4 Y128.452 E3.23937
;WIDTH:0.565603
G1 X115.598 Y128.473 E3.24802
;WIDTH:0.522801
G1 X115.797 Y128.494 E3.256
;WIDTH:0.479999
G1 X116.994 Y128.494 E3.2995
G1 X116.994 Y101.724 E4.27241
G1 X116.536 Y101.964 E4.2912
;WIDTH:0.521692
G1 X115.724 Y101.964 E4.32353
G1 X116.099 Y102.337 E4.34459
G1 X116.138 Y102.514 E4.35181
;WIDTH:0.487418
G1 X116.178 Y102.691 E4.35852
;WIDTH:0.453144
G1 X116.217 Y102.868 E4.3647
;WIDTH:0.42321
G1 X116.207 Y103.253 E4.37688
;WIDTH:0.468742
G1 X116.15 Y103.486 E4.38537
;WIDTH:0.479999
G1 X116.004 Y103.752 E4.3964
G1 X115.777 Y103.985 E4.40822
G1 X115.518 Y104.143 E4.41925
G1 X115.206 Y104.237 E4.43109
G1 X114.903 Y104.251 E4.44211
G1 X114.584 Y104.184 E4.45396
G1 X114.313 Y104.049 E4.46496
G1 X114.064 Y103.835 E4.47689
G1 X113.892 Y103.584 E4.48795
;WIDTH:0.477427
G1 X113.802 Y103.277 E4.49951
;WIDTH:0.429149
G1 X113.776 Y102.912 E4.51126
;WIDTH:0.457178
G1 X113.837 Y102.645 E4.52069
;WIDTH:0.503289
G1 X113.897 Y102.379 E4.53113
;WIDTH:0.52267
G1 X114.09 Y102.107 E4.54443
G1 X114.268 Y101.964 E4.55354
G1 X113.464 Y101.964 E4.58561
G1 X113.444 Y102.277 E4.59812
;WIDTH:0.482974
G1 X113.424 Y102.59 E4.6096
;WIDTH:0.443278
G1 X113.417 Y103.297 E4.63314
;WIDTH:0.454574
G1 X113.43 Y103.664 E4.64571
;WIDTH:0.479999
G1 X113.443 Y104.03 E4.65902
G1 X113.443 Y126.29 E5.46802
G1 X113.426 Y126.601 E5.47934
;WIDTH:0.445533
G1 X113.408 Y126.912 E5.48977
;WIDTH:0.45914
G1 X113.432 Y127.318 E5.50385
;WIDTH:0.507212
G1 X113.456 Y127.724 E5.51955
;WIDTH:0.527944
G1 X113.467 Y128.033 E5.53202
G1 X114.258 Y128.033 E5.56392
G1 X114.045 Y127.849 E5.57527
G1 X113.879 Y127.592 E5.58761
;WIDTH:0.507212
G1 X113.841 Y127.435 E5.59385
;WIDTH:0.468182
G1 X113.802 Y127.277 E5.5996
;WIDTH:0.429151
G1 X113.776 Y126.912 E5.61135
;WIDTH:0.43896
G1 X113.787 Y126.787 E5.61548
;WIDTH:0.466852
G1 X113.798 Y126.663 E5.61987
;WIDTH:0.479999
G1 X113.908 Y126.383 E5.6308
G1 X114.103 Y126.124 E5.64258
G1 X114.341 Y125.933 E5.65367
G1 X114.643 Y125.798 E5.66569
G1 X115.037 Y125.738 E5.68017
G1 X115.551 Y125.873 E5.69948
G1 X115.822 Y126.053 E5.7113
G1 X116.025 Y126.277 E5.72229
G1 X116.173 Y126.567 E5.73412
;WIDTH:0.472192
G1 X116.199 Y126.834 E5.7437
;WIDTH:0.442174
G1 X116.224 Y127.101 E5.7526
;WIDTH:0.444508
G1 X116.189 Y127.295 E5.75918
;WIDTH:0.47686
G1 X116.154 Y127.488 E5.76626
;WIDTH:0.502697
G1 X116.089 Y127.626 E5.77209
;WIDTH:0.528533
G1 X116.025 Y127.764 E5.77823
G1 X115.745 Y128.033 E5.79391
G1 X116.533 Y128.033 E5.82573
G1 X116.551 Y127.782 E5.83589
;WIDTH:0.493425
G1 X116.568 Y127.531 E5.84531
;WIDTH:0.458317
G1 X116.586 Y127.28 E5.854
;WIDTH:0.472192
G1 X116.561 Y126.522 E5.88107
;WIDTH:0.479999
G1 X116.557 Y103.899 E6.70326
G1 X116.571 Y103.59 E6.7145
;WIDTH:0.451605
G1 X116.586 Y103.28 E6.72505
;WIDTH:0.454207
G1 X116.57 Y102.522 E6.75098
;WIDTH:0.495307
G1 X116.55 Y102.182 E6.76379
G1 X116.55 Y102.182 F12000
G1 X115.752 Y102.667
;WIDTH:0.479999
G1 F5189
G1 X115.825 Y103.043 E6.77771
G1 X115.776 Y103.271 E6.78619
G1 X115.549 Y103.612 E6.80108
G1 X115.187 Y103.801 E6.81592
G1 X114.778 Y103.792 E6.83079
G1 X114.424 Y103.586 E6.84568
G1 X114.212 Y103.234 E6.86061
G1 X114.196 Y102.828 E6.87538
G1 X114.376 Y102.465 E6.89011
;WIDTH:0.528519
G1 X114.485 Y102.362 E6.89617
;WIDTH:0.577038
G1 X114.594 Y102.26 E6.9028
;WIDTH:0.625557
G1 X114.703 Y102.157 E6.91007
G1 X115.006 Y102.119 E6.92486
;WIDTH:0.611986
G1 X115.146 Y102.125 E6.93149
G1 X115.263 Y102.199 E6.93804
;WIDTH:0.567991
G1 X115.381 Y102.272 E6.9441
;WIDTH:0.523995
G1 X115.498 Y102.346 E6.94964
;WIDTH:0.479999
G1 X115.616 Y102.495 E6.95655
G1 E5.55655 F6000
;WIPE_START
G1 F9600
G1 X115.498 Y102.346 E5.4437
G1 X115.381 Y102.272 E5.3615
G1 X115.263 Y102.199 E5.27911
G1 X115.146 Y102.125 E5.19691
G1 X115.006 Y102.119 E5.11371
G1 X114.743 Y102.152 E4.95655
;WIPE_END
G92 E0
G1 X116.12 Y104.239 F12000
G1 E2 F6000
G1 F5189
G1 X116.004 Y104.359 E2.00607
G1 X115.745 Y104.516 E2.01708
G1 X115.225 Y104.674 E2.03683
G1 X114.922 Y104.687 E2.04785
G1 X114.391 Y104.575 E2.06757
G1 X114.119 Y104.441 E2.07859
