; generated by PrusaSlicer 2.7.4+win64 on 2024-06-14 at 07:08:11 UTC

; 

; external perimeters extrusion width = 0.48mm
; perimeters extrusion width = 0.48mm
; infill extrusion width = 0.48mm
; solid infill extrusion width = 0.48mm
; top infill extrusion width = 0.48mm
; first layer extrusion width = 0.48mm

M201 X2000 Y2000 Z800 E2000 ; sets maximum accelerations, mm/sec^2
M203 X300 Y250 Z8 E100 ; sets maximum feedrates, mm / sec
M204 S2000 T2000 ; sets acceleration (S) and retract acceleration (R), mm/sec^2
M205 X15.00 Y10.00 Z2.00 E10.00 ; sets the jerk limits, mm/sec
M205 S0 T0 ; sets the minimum extruding and travel feed rate, mm/sec
;TYPE:Custom
G90 ; use absolute coordinates
M83 ; extruder relative mode
M104 S200 ; set extruder temp
M140 S60 ; set bed temp
M190 S60 ; wait for bed temp
M109 S200 ; wait for extruder temp
G28                                        ; move X/Y/Z to min endstops
G1 Z0.28                                   ; lift nozzle a bit 
G92 E0 
G1 Y3 F1800                                    ; zero the extruded length 
G1 X60  E25 F500                       ; Extrude 25mm of filament in a 5cm line. 
G92 E0                                     ; zero the extruded length again 
G1 E-2 F500                                ; Retract a little 
G1 X70 F4000                              ; Quickly wipe away from the filament line
M117
G21 ; set units to millimeters
G90 ; use absolute coordinates
M82 ; use absolute distances for extrusion
G92 E0
M107
;LAYER_CHANGE
;Z:0.28
;HEIGHT:0.28
G1 E-8.5 F6000
G92 E0
G1 Z.28 F12000
G1 X109.263 Y98.489
G1 E8.5 F6000
G92 E0
M204 S2000
;TYPE:Skirt/Brim
;WIDTH:0.48
G1 F3000
G1 X109.77 Y97.94 E.03653
G1 X110.334 Y97.558 E.06983
G1 X111.114 Y97.298 E.11002
G1 X118.834 Y97.292 E.48739
G1 X119.319 Y97.413 E.51182
G1 X119.815 Y97.638 E.53844
G1 X120.577 Y98.287 E.58737
G1 X120.945 Y98.84 E.61984
G1 X121.138 Y99.342 E.64613
G1 X121.229 Y99.863 E.67198
G1 X121.229 Y130.126 E2.1513
G1 X121.172 Y130.536 E2.17153
G1 X120.737 Y131.511 E2.22372
G1 X120.23 Y132.06 E2.26025
G1 X119.666 Y132.442 E2.29355
G1 X118.886 Y132.702 E2.33374
G1 X111.375 Y132.729 E2.7009
G1 X110.964 Y132.672 E2.72118
G1 X109.989 Y132.237 E2.77337
G1 X109.44 Y131.73 E2.8099
G1 X109.055 Y131.16 E2.84352
G1 X108.862 Y130.658 E2.86981
G1 X108.771 Y130.137 E2.89566
G1 X108.771 Y99.874 E4.37498
G1 X108.828 Y99.464 E4.39521
G1 X109.238 Y98.544 E4.44445
G1 X109.238 Y98.544 F12000
G1 X109.612 Y98.723
G1 F3000
G1 X110.059 Y98.244 E4.47648
G1 X110.514 Y97.938 E4.50328
G1 X111.191 Y97.711 E4.53818
G1 X118.76 Y97.705 E4.90817
G1 X119.622 Y98.011 E4.95288
G1 X120.265 Y98.569 E4.9945
G1 X120.563 Y99.015 E5.02072
G1 X120.81 Y99.883 E5.06483
G1 X120.81 Y130.111 E6.54244
G1 X120.76 Y130.452 E6.55929
G1 X120.388 Y131.277 E6.60353
G1 X119.941 Y131.756 E6.63556
G1 X119.486 Y132.062 E6.66236
G1 X118.809 Y132.288 E6.69725
G1 X111.39 Y132.31 E7.05991
G1 X111.048 Y132.26 E7.07681
G1 X110.223 Y131.888 E7.12105
G1 X109.744 Y131.441 E7.15308
G1 X109.437 Y130.985 E7.17995
G1 X109.19 Y130.117 E7.22406
G1 X109.19 Y99.889 E8.70167
G1 X109.24 Y99.548 E8.71852
G1 X109.587 Y98.778 E8.7598
G1 X109.587 Y98.778 F12000
G1 X109.96 Y98.96
G1 F3000
G1 X110.347 Y98.551 E8.78732
G1 X110.694 Y98.318 E8.80775
G1 X111.267 Y98.125 E8.83731
G1 X118.734 Y98.125 E9.20231
G1 X119.428 Y98.384 E9.23852
G1 X119.954 Y98.852 E9.27294
G1 X120.182 Y99.193 E9.29299
G1 X120.39 Y99.903 E9.32915
G1 X120.348 Y130.366 E10.81825
G1 X120.04 Y131.04 E10.85447
G1 X119.653 Y131.449 E10.88199
G1 X119.306 Y131.682 E10.90242
G1 X118.733 Y131.875 E10.93198
G1 X111.134 Y131.848 E11.30344
G1 X110.46 Y131.54 E11.33966
G1 X110.051 Y131.153 E11.36718
G1 X109.818 Y130.807 E11.38757
G1 X109.61 Y130.097 E11.42373
G1 X109.652 Y99.634 E12.91283
G1 X109.935 Y99.014 E12.94614
G1 X109.935 Y99.014 F12000
G1 X110.304 Y99.2
G1 F3000
G1 X110.633 Y98.859 E12.9693
G1 X111.339 Y98.539 E13.00719
G1 X118.661 Y98.539 E13.3651
G1 X119.201 Y98.738 E13.39323
G1 X119.642 Y99.134 E13.4222
G1 X119.802 Y99.373 E13.43626
G1 X119.97 Y99.925 E13.46446
G1 X119.938 Y130.276 E14.94808
G1 X119.696 Y130.8 E14.97629
G1 X119.367 Y131.141 E14.99945
G1 X118.661 Y131.461 E15.03734
G1 X111.224 Y131.438 E15.40088
G1 X110.7 Y131.196 E15.42909
G1 X110.359 Y130.867 E15.45225
G1 X110.198 Y130.626 E15.46642
G1 X110.03 Y130.075 E15.49458
G1 X110.062 Y99.724 E16.9782
G1 X110.279 Y99.255 E17.00346
G1 X110.279 Y99.255 F12000
G1 X110.646 Y99.445
G1 F3000
G1 X110.917 Y99.169 E17.02237
G1 X111.407 Y98.954 E17.04853
G1 X118.712 Y98.981 E17.40562
G1 X118.98 Y99.096 E17.41988
G1 X119.331 Y99.416 E17.4431
G1 X119.55 Y99.945 E17.47109
G1 X119.528 Y130.18 E18.94904
G1 X119.354 Y130.555 E18.96925
G1 X119.083 Y130.831 E18.98816
G1 X118.593 Y131.046 E19.01432
G1 X111.32 Y131.028 E19.36984
G1 X110.945 Y130.854 E19.39005
G1 X110.669 Y130.583 E19.40896
G1 X110.45 Y130.055 E19.4369
G1 X110.472 Y99.82 E20.91485
G1 X110.62 Y99.5 E20.93208
G1 X110.62 Y99.5 F12000
G1 X110.981 Y99.699
G1 F3000
G1 X111.199 Y99.481 E20.94715
G1 X111.466 Y99.37 E20.96128
G1 X118.534 Y99.37 E21.30678
G1 X118.801 Y99.481 E21.32091
G1 X119.019 Y99.699 E21.33598
G1 X119.13 Y99.966 E21.35011
G1 X119.122 Y130.074 E22.82185
G1 X119.019 Y130.301 E22.83404
G1 X118.801 Y130.519 E22.84911
G1 X118.534 Y130.63 E22.86324
G1 X111.426 Y130.622 E23.21069
G1 X111.199 Y130.519 E23.22288
G1 X110.981 Y130.301 E23.23795
G1 X110.87 Y130.034 E23.25208
G1 X110.878 Y99.926 E24.72382
G1 X110.956 Y99.753 E24.7331
G1 X110.956 Y99.753 F12000
G1 X111.29 Y100.029
G1 F3000
G1 X111.529 Y99.79 E24.74962
G1 X118.549 Y99.822 E25.09278
G1 X118.71 Y100.029 E25.1056
G1 X118.71 Y129.971 E26.56923
G1 X118.471 Y130.21 E26.58575
G1 X111.529 Y130.21 E26.92509
G1 X111.29 Y129.971 E26.94161
G1 X111.29 Y100.089 E28.4023
G1 E22.4523 F6000
;WIPE_START
G1 F9600
G1 X111.29 Y100.029 E22.41667
G1 X111.529 Y99.79 E22.21598
G1 X115.425 Y99.808 E19.9023
;WIPE_END
G92 E0
G92 E0
G1 X118.14 Y129.64 F12000
G1 E8.5 F6000
;TYPE:External perimeter
G1 F3000
G1 X111.86 Y129.64 E8.80698
G1 X111.86 Y100.36 E10.23825
G1 X118.14 Y100.36 E10.54523
G1 X118.14 Y129.58 E11.97356
G1 X117.72 Y129.22 F12000
;TYPE:Perimeter
G1 F3000
G1 X112.28 Y129.22 E12.23948
G1 X112.28 Y100.78 E13.62969
G1 X117.72 Y100.78 E13.89561
G1 X117.72 Y129.16 E15.28288
G1 X117.3 Y128.8 F12000
G1 F3000
G1 X112.7 Y128.8 E15.50774
G1 X112.7 Y101.2 E16.85689
G1 X117.3 Y101.2 E17.08175
G1 X117.3 Y128.74 E18.42796
G1 X117.3 Y128.74 F12000
G1 X116.938 Y128.632
;TYPE:Solid infill
;WIDTH:0.490731
G1 F3000
G1 X116.938 Y101.557 E19.78526
G1 X116.507 Y101.557 E19.80687
G1 X116.507 Y128.443 E21.1547
G1 X116.077 Y128.443 E21.17626
G1 X116.077 Y101.557 E22.52409
G1 X115.646 Y101.557 E22.5457
G1 X115.646 Y128.443 E23.89353
G1 X115.215 Y128.443 E23.91514
G1 X115.215 Y101.557 E25.26297
G1 X114.785 Y101.557 E25.28453
G1 X114.785 Y128.443 E26.63236
G1 X114.354 Y128.443 E26.65397
G1 X114.354 Y101.557 E28.0018
G1 X113.923 Y101.557 E28.02341
G1 X113.923 Y128.443 E29.37124
G1 X113.493 Y128.443 E29.3928
G1 X113.493 Y101.557 E30.74063
G1 X113.062 Y101.557 E30.76224
G1 X113.062 Y128.632 E32.11954
;LAYER_CHANGE
;Z:0.48
;HEIGHT:0.2
; BEFORE_LAYER_CHANGE 1 @ 0.48mm
G1 E26.16954 F6000
;WIPE_START
G1 F9600
G1 X113.062 Y124.337 E23.61954
;WIPE_END
G92 E0
G1 Z.48 F12000
; AFTER_LAYER_CHANGE 1 @ 0.48mm
M104 S180 ; set temperature
G1 X111.76 Y100.26
G1 E8.5 F6000
G92 E0
;TYPE:External perimeter
;WIDTH:0.48
G1 F4800
G1 X118.24 Y100.26 E.2355
G1 X118.24 Y129.74 E1.3069
G1 X111.76 Y129.74 E1.5424
G1 X111.76 Y100.32 E2.61162
G1 X112.197 Y100.697 F12000
;TYPE:Perimeter
G1 F5291
G1 X117.803 Y100.697 E2.81536
G1 X117.803 Y129.303 E3.855
G1 X112.197 Y129.303 E4.05874
G1 X112.197 Y100.757 E5.0962
G1 X112.634 Y101.134 F12000
G1 F5291
G1 X117.366 Y101.134 E5.26818
G1 X117.366 Y128.866 E6.27605
G1 X112.634 Y128.866 E6.44803
G1 X112.634 Y101.194 E7.45372
G1 E1.50372 F6000
;WIPE_START
G1 F9600
G1 X112.634 Y101.134 E1.46809
G1 X116.869 Y101.134 E-1.04628
;WIPE_END
G92 E0
G1 X116.994 Y101.506 F12000
G1 E8.5 F6000
;TYPE:Solid infill
;WIDTH:0.479999
G1 F5291
G1 X113.006 Y101.506 E8.64494
G1 X113.006 Y128.494 E9.62577
G1 X116.994 Y128.494 E9.77071
G1 X116.994 Y101.724 E10.74362
G1 X116.557 Y101.943 E10.76138
G1 X113.443 Y101.943 E10.87455
G1 X113.443 Y128.057 E11.82362
G1 X116.557 Y128.057 E11.93679
G1 X116.557 Y102.161 E12.87794
G1 X116.12 Y102.38 E12.8957
G1 X113.88 Y102.38 E12.97711
G1 X113.88 Y127.62 E13.89441
G1 X116.12 Y127.62 E13.97582
G1 X116.12 Y102.598 E14.8852
G1 X115.683 Y102.817 E14.90296
G1 X114.317 Y102.817 E14.9526
G1 X114.317 Y127.183 E15.83814
G1 X115.683 Y127.183 E15.88778
G1 X115.683 Y103.035 E16.7654
G1 X115.232 Y103.268 E16.78385
;WIDTH:0.507469
G1 X114.768 Y103.268 E16.80177
G1 X114.768 Y126.732 E17.70812
G1 X115.232 Y126.732 E17.72604
G1 X115.232 Y103.486 E18.62397
M106 S255
;LAYER_CHANGE
;Z:0.68
;HEIGHT:0.2
; BEFORE_LAYER_CHANGE 2 @ 0.68mm
G1 E12.67397 F6000
;WIPE_START
G1 F9600
G1 X115.232 Y107.781 E10.12397
;WIPE_END
G92 E0
G1 Z.68 F12000
; AFTER_LAYER_CHANGE 2 @ 0.68mm
G1 X111.76 Y129.74
G1 E8.5 F6000
G92 E0
;TYPE:External perimeter
;WIDTH:0.48
G1 F4800
G1 X111.76 Y100.26 E1.0714
G1 X118.24 Y100.26 E1.3069
G1 X118.24 Y129.74 E2.3783
G1 X111.82 Y129.74 E2.61162
G1 X112.197 Y129.303 F12000
;TYPE:Perimeter
G1 F5756
G1 X112.197 Y100.697 E3.65126
G1 X117.803 Y100.697 E3.855
G1 X117.803 Y129.303 E4.89464
G1 X112.257 Y129.303 E5.0962
G1 X112.634 Y128.866 F12000
G1 F5756
G1 X112.634 Y101.134 E6.10407
G1 X117.366 Y101.134 E6.27605
G1 X117.366 Y128.866 E7.28392
G1 X112.694 Y128.866 E7.45372
G1 X112.694 Y128.866 F12000
G1 X113.224 Y128.494
;TYPE:Solid infill
;WIDTH:0.479999
G1 F5756
G1 X113.224 Y101.506 E8.43455
G1 X113.06 Y101.451 E8.44084
;WIDTH:0.43146
G1 X112.896 Y101.396 E8.44643
;WIDTH:0.38292
G1 X112.896 Y128.604 E9.21563
;WIDTH:0.479999
G1 X113.661 Y128.494 E9.24372
G1 X113.661 Y101.506 E10.22455
G1 X114.098 Y101.506 E10.24043
G1 X114.098 Y128.494 E11.22126
G1 X114.535 Y128.494 E11.23714
G1 X114.535 Y101.506 E12.21797
G1 X114.973 Y101.506 E12.23389
G1 X114.973 Y128.494 E13.21472
G1 X115.41 Y128.494 E13.2306
G1 X115.41 Y101.506 E14.21143
G1 X115.847 Y101.506 E14.22731
G1 X115.847 Y128.494 E15.20814
G1 X116.284 Y128.494 E15.22402
G1 X116.284 Y101.506 E16.20485
G1 E10.25485 F6000
;WIPE_START
G1 F9600
G1 X116.284 Y105.801 E7.70485
;WIPE_END
G92 E0
G1 X116.721 Y128.494 F12000
G1 E8.5 F6000
G1 F5756
G1 X116.721 Y101.506 E9.48083
G1 X116.898 Y101.465 E9.48743
;WIDTH:0.43146
G1 X117.076 Y101.424 E9.49333
;WIDTH:0.38292
G1 X117.076 Y128.576 E10.26095
;LAYER_CHANGE
;Z:0.88
;HEIGHT:0.2
; BEFORE_LAYER_CHANGE 3 @ 0.88mm
G1 E4.31095 F6000
;WIPE_START
G1 F9600
G1 X117.076 Y124.281 E1.76095
;WIPE_END
G92 E0
G1 Z.88 F12000
; AFTER_LAYER_CHANGE 3 @ 0.88mm
G1 X111.76 Y129.74
G1 E8.5 F6000
G92 E0
;TYPE:External perimeter
;WIDTH:0.48
G1 F4800
G1 X111.76 Y100.26 E1.0714
G1 X118.24 Y100.26 E1.3069
G1 X118.24 Y129.74 E2.3783
G1 X111.82 Y129.74 E2.61162
G1 X112.197 Y129.303 F12000
;TYPE:Perimeter
G1 F5803
G1 X112.197 Y100.697 E3.65126
G1 X117.803 Y100.697 E3.855
G1 X117.803 Y129.303 E4.89464
G1 X112.257 Y129.303 E5.0962
G1 X112.634 Y128.866 F12000
G1 F5803
G1 X112.634 Y101.134 E6.10407
G1 X117.366 Y101.134 E6.27605
G1 X117.366 Y128.866 E7.28392
G1 X112.694 Y128.866 E7.45372
G1 E1.50372 F6000
;WIPE_START
G1 F9600
G1 X112.634 Y128.866 E1.46809
G1 X112.634 Y124.631 E-1.04628
;WIPE_END
G92 E0
G1 X116.994 Y101.506 F12000
G1 E8.5 F6000
;TYPE:Solid infill
;WIDTH:0.479999
G1 F5803
G1 X115.871 Y101.506 E8.54081
;WIDTH:0.523995
G1 X115.66 Y101.528 E8.5493
;WIDTH:0.567991
G1 X115.45 Y101.55 E8.55852
;WIDTH:0.611986
G1 X115.239 Y101.572 E8.56856
;WIDTH:0.625557
G1 X114.655 Y101.578 E8.59685
G1 X114.45 Y101.554 E8.60685
;WIDTH:0.577038
G1 X114.245 Y101.53 E8.61602
;WIDTH:0.528519
G1 X114.039 Y101.506 E8.62439
;WIDTH:0.479999
G1 X113.006 Y101.506 E8.66193
G1 X113.006 Y128.494 E9.64276
G1 X114.311 Y128.494 E9.69019
;WIDTH:0.520499
G1 X114.499 Y128.474 E9.6977
;WIDTH:0.560998
G1 X114.687 Y128.454 E9.70584
;WIDTH:0.601497
G1 X114.875 Y128.434 E9.71462
;WIDTH:0.608405
G1 X115.202 Y128.43 E9.73
G1 X115.4 Y128.452 E9.73937
;WIDTH:0.565603
G1 X115.598 Y128.473 E9.74802
;WIDTH:0.522801
G1 X115.797 Y128.494 E9.756
;WIDTH:0.479999
G1 X116.994 Y128.494 E9.7995
G1 X116.994 Y101.724 E10.77241
G1 X116.536 Y101.964 E10.7912
;WIDTH:0.521692
G1 X115.724 Y101.964 E10.82353
G1 X116.099 Y102.337 E10.84459
G1 X116.138 Y102.514 E10.85181
;WIDTH:0.487418
G1 X116.178 Y102.691 E10.85852
;WIDTH:0.453144
G1 X116.217 Y102.868 E10.8647
;WIDTH:0.42321
G1 X116.207 Y103.253 E10.87688
;WIDTH:0.468742
G1 X116.15 Y103.486 E10.88537
;WIDTH:0.479999
G1 X116.004 Y103.752 E10.8964
G1 X115.777 Y103.985 E10.90822
G1 X115.518 Y104.143 E10.91925
G1 X115.206 Y104.237 E10.93109
G1 X114.903 Y104.251 E10.94211
G1 X114.584 Y104.184 E10.95396
G1 X114.313 Y104.049 E10.96496
G1 X114.064 Y103.835 E10.97689
G1 X113.892 Y103.584 E10.98795
;WIDTH:0.477427
G1 X113.802 Y103.277 E10.99951
;WIDTH:0.429149
G1 X113.776 Y102.912 E11.01126
;WIDTH:0.457178
G1 X113.837 Y102.645 E11.02069
;WIDTH:0.503289
G1 X113.897 Y102.379 E11.03113
;WIDTH:0.52267
G1 X114.09 Y102.107 E11.04443
G1 X114.268 Y101.964 E11.05354
G1 X113.464 Y101.964 E11.08561
G1 X113.444 Y102.277 E11.09812
;WIDTH:0.482974
G1 X113.424 Y102.59 E11.1096
;WIDTH:0.443278
G1 X113.417 Y103.297 E11.13314
;WIDTH:0.454574
G1 X113.43 Y103.664 E11.14571
;WIDTH:0.479999
G1 X113.443 Y104.03 E11.15902
G1 X113.443 Y126.29 E11.96802
G1 X113.426 Y126.601 E11.97934
;WIDTH:0.445533
G1 X113.408 Y126.912 E11.98977
;WIDTH:0.45914
G1 X113.432 Y127.318 E12.00385
;WIDTH:0.507212
G1 X113.456 Y127.724 E12.01955
;WIDTH:0.527944
G1 X113.467 Y128.033 E12.03202
G1 X114.258 Y128.033 E12.06392
G1 X114.045 Y127.849 E12.07527
G1 X113.879 Y127.592 E12.08761
;WIDTH:0.507212
G1 X113.841 Y127.435 E12.09385
;WIDTH:0.468182
G1 X113.802 Y127.277 E12.0996
;WIDTH:0.429151
G1 X113.776 Y126.912 E12.11135
;WIDTH:0.43896
G1 X113.787 Y126.787 E12.11548
;WIDTH:0.466852
G1 X113.798 Y126.663 E12.11987
;WIDTH:0.479999
G1 X113.908 Y126.383 E12.1308
G1 X114.103 Y126.124 E12.14258
G1 X114.341 Y125.933 E12.15367
G1 X114.643 Y125.798 E12.16569
G1 X115.037 Y125.738 E12.18017
G1 X115.551 Y125.873 E12.19948
G1 X115.822 Y126.053 E12.2113
G1 X116.025 Y126.277 E12.22229
G1 X116.173 Y126.567 E12.23412
;WIDTH:0.472192
G1 X116.199 Y126.834 E12.2437
;WIDTH:0.442174
G1 X116.224 Y127.101 E12.2526
;WIDTH:0.444508
G1 X116.189 Y127.295 E12.25918
;WIDTH:0.47686
G1 X116.154 Y127.488 E12.26626
;WIDTH:0.502697
G1 X116.089 Y127.626 E12.27209
;WIDTH:0.528533
G1 X116.025 Y127.764 E12.27823
G1 X115.745 Y128.033 E12.29391
G1 X116.533 Y128.033 E12.32573
G1 X116.551 Y127.782 E12.33589
;WIDTH:0.493425
G1 X116.568 Y127.531 E12.34531
;WIDTH:0.458317
G1 X116.586 Y127.28 E12.354
;WIDTH:0.472192
G1 X116.561 Y126.522 E12.38107
;WIDTH:0.479999
G1 X116.557 Y103.899 E13.20326
G1 X116.571 Y103.59 E13.2145
;WIDTH:0.451605
G1 X116.586 Y103.28 E13.22505
;WIDTH:0.454207
G1 X116.57 Y102.522 E13.25098
;WIDTH:0.495307
G1 X116.55 Y102.182 E13.26379
G1 X116.55 Y102.182 F12000
G1 X115.752 Y102.667
;WIDTH:0.479999
G1 F5803
G1 X115.825 Y103.043 E13.27771
G1 X115.776 Y103.271 E13.28619
G1 X115.549 Y103.612 E13.30108
G1 X115.187 Y103.801 E13.31592
G1 X114.778 Y103.792 E13.33079
G1 X114.424 Y103.586 E13.34568
G1 X114.212 Y103.234 E13.36061
G1 X114.196 Y102.828 E13.37538
G1 X114.376 Y102.465 E13.39011
;WIDTH:0.528519
G1 X114.485 Y102.362 E13.39617
;WIDTH:0.577038
G1 X114.594 Y102.26 E13.4028
;WIDTH:0.625557
G1 X114.703 Y102.157 E13.41007
G1 X115.006 Y102.119 E13.42486
;WIDTH:0.611986
G1 X115.146 Y102.125 E13.43149
G1 X115.263 Y102.199 E13.43804
;WIDTH:0.567991
G1 X115.381 Y102.272 E13.4441
;WIDTH:0.523995
G1 X115.498 Y102.346 E13.44964
;WIDTH:0.479999
G1 X115.616 Y102.495 E13.45655
G1 E7.50655 F6000
;WIPE_START
G1 F9600
G1 X115.498 Y102.346 E7.3937
G1 X115.381 Y102.272 E7.3115
G1 X115.263 Y102.199 E7.22911
G1 X115.146 Y102.125 E7.14691
G1 X115.006 Y102.119 E7.06371
G1 X114.703 Y102.157 E6.88239
G1 X114.594 Y102.26 E6.79335
G1 X114.485 Y102.362 E6.70471
G1 X114.376 Y102.465 E6.61567
G1 X114.196 Y102.828 E6.3751
